luts/cool_authority.cube
TITLE "cool_authority"
LUT_3D_SIZE 33
DOMAIN_MIN 0.0 0.0 0.0
DOMAIN_MAX 1.0 1.0 1.0
0.000000 0.000000 0.000000
0.005354 0.000000 0.000000
0.030709 0.000000 0.000000
0.056063 0.000000 0.000000
0.081417 0.000000 0.000000
0.106772 0.000000 0.000000
0.132126 0.000000 0.000000
0.157480 0.000000 0.000000
0.182835 0.000000 0.000000
0.208189 0.000000 0.000000
0.233543 0.000000 0.000000
0.258898 0.000000 0.000000
0.284252 0.000000 0.000000
0.309606 0.000000 0.000000
0.334961 0.000000 0.000000
0.360315 0.000000 0.000000
0.385669 0.000000 0.000000
0.411024 0.000000 0.000000
0.436378 0.000000 0.000000
0.461732 0.000000 0.000000
0.487087 0.000000 0.000000
0.512441 0.000000 0.000000
0.537795 0.000170 0.000170
0.563150 0.001087 0.001087
0.588504 0.002004 0.002004
0.613858 0.002921 0.002921
0.639213 0.003838 0.003838
0.664567 0.004755 0.004755
0.689921 0.005671 0.005671
0.715276 0.006588 0.006588
0.740630 0.007505 0.007505
0.765984 0.008422 0.008422
0.791339 0.009339 0.009339
0.000000 0.009915 0.000000
0.008707 0.010832 0.000000
0.034061 0.011749 0.000000
0.059416 0.012666 0.000000
0.084770 0.013582 0.000000
0.110124 0.014499 0.000000
0.135479 0.015416 0.000000
0.160833 0.016333 0.000000
0.186187 0.017250 0.000000
0.211542 0.018167 0.000000
0.236896 0.019083 0.000000
0.262250 0.020000 0.000000
0.287605 0.020917 0.000000
0.312959 0.021834 0.000000
0.338313 0.022751 0.000000
0.363668 0.023668 0.000000
0.389022 0.024584 0.000000
0.414376 0.025501 0.000000
0.439731 0.026418 0.000000
0.465085 0.027335 0.000772
0.490439 0.028252 0.001689
0.515794 0.029169 0.002606
0.541148 0.030085 0.003523
0.566502 0.031002 0.004440
0.591857 0.031919 0.005357
0.617211 0.032836 0.006273
0.642565 0.033753 0.007190
0.667920 0.034670 0.008107
0.693274 0.035586 0.009024
0.718628 0.036503 0.009941
0.743983 0.037420 0.010858
0.769337 0.038337 0.011774
0.794691 0.039254 0.012691
0.000000 0.039830 0.000000
0.012059 0.040747 0.000000
0.037414 0.041664 0.000000
0.062768 0.042581 0.000000
0.088122 0.043497 0.000000
0.113477 0.044414 0.000000
0.138831 0.045331 0.000000
0.164185 0.046248 0.000000
0.189540 0.047165 0.000000
0.214894 0.048082 0.000000
0.240248 0.048998 0.000000
0.265603 0.049915 0.000000
0.290957 0.050832 0.000000
0.316311 0.051749 0.000000
0.341666 0.052666 0.000000
0.367020 0.053583 0.000458
0.392374 0.054499 0.001374
0.417729 0.055416 0.002291
0.443083 0.056333 0.003208
0.468437 0.057250 0.004125
0.493792 0.058167 0.005042
0.519146 0.059084 0.005959
0.544500 0.060000 0.006875
0.569855 0.060917 0.007792
0.595209 0.061834 0.008709
0.620563 0.062751 0.009626
0.645918 0.063668 0.010543
0.671272 0.064585 0.011460
0.696626 0.065501 0.012376
0.721981 0.066418 0.013293
0.747335 0.067335 0.014210
0.772689 0.068252 0.015127
0.798044 0.069169 0.016044
0.000000 0.069745 0.000000
0.015412 0.070662 0.000000
0.040766 0.071579 0.000000
0.066121 0.072496 0.000000
0.091475 0.073412 0.000000
0.116829 0.074329 0.000000
0.142184 0.075246 0.000000
0.167538 0.076163 0.000000
0.192892 0.077080 0.000000
0.218247 0.077997 0.000000
0.243601 0.078913 0.000000
0.268955 0.079830 0.000143
0.294310 0.080747 0.001060
0.319664 0.081664 0.001976
0.345018 0.082581 0.002893
0.370373 0.083498 0.003810
0.395727 0.084414 0.004727
0.421081 0.085331 0.005644
0.446436 0.086248 0.006561
0.471790 0.087165 0.007477
0.497144 0.088082 0.008394
0.522499 0.088999 0.009311
0.547853 0.089915 0.010228
0.573207 0.090832 0.011145
0.598562 0.091749 0.012062
0.623916 0.092666 0.012978
0.649270 0.093583 0.013895
0.674625 0.094500 0.014812
0.699979 0.095416 0.015729
0.725333 0.096333 0.016646
0.750688 0.097250 0.017563
0.776042 0.098167 0.018479
0.801396 0.099084 0.019396
0.000000 0.099660 0.000000
0.018764 0.100577 0.000000
0.044119 0.101494 0.000000
0.069473 0.102411 0.000000
0.094827 0.103327 0.000000
0.120182 0.104244 0.000000
0.145536 0.105161 0.000000
0.170890 0.106078 0.000000
0.196245 0.106995 0.000745
0.221599 0.107912 0.001662
0.246953 0.108828 0.002578
0.272308 0.109745 0.003495
0.297662 0.110662 0.004412
0.323016 0.111579 0.005329
0.348371 0.112496 0.006246
0.373725 0.113413 0.007163
0.399079 0.114329 0.008079
0.424434 0.115246 0.008996
0.449788 0.116163 0.009913
0.475142 0.117080 0.010830
0.500497 0.117997 0.011747
0.525851 0.118914 0.012664
0.551205 0.119830 0.013580
0.576560 0.120747 0.014497
0.601914 0.121664 0.015414
0.627268 0.122581 0.016331
0.652623 0.123498 0.017248
0.677977 0.124415 0.018165
0.703331 0.125331 0.019081
0.728686 0.126248 0.019998
0.754040 0.127165 0.020915
0.779394 0.128082 0.021832
0.804749 0.128999 0.022749
0.000000 0.129575 0.000000
0.022117 0.130492 0.000000
0.047471 0.131409 0.000000
0.072826 0.132326 0.000000
0.098180 0.133242 0.000430
0.123534 0.134159 0.001347
0.148889 0.135076 0.002264
0.174243 0.135993 0.003180
0.199597 0.136910 0.004097
0.224952 0.137827 0.005014
0.250306 0.138743 0.005931
0.275660 0.139660 0.006848
0.301015 0.140577 0.007765
0.326369 0.141494 0.008681
0.351723 0.142411 0.009598
0.377078 0.143328 0.010515
0.402432 0.144244 0.011432
0.427786 0.145161 0.012349
0.453141 0.146078 0.013266
0.478495 0.146995 0.014182
0.503849 0.147912 0.015099
0.529204 0.148829 0.016016
0.554558 0.149745 0.016933
0.579912 0.150662 0.017850
0.605267 0.151579 0.018767
0.630621 0.152496 0.019683
0.655975 0.153413 0.020600
0.681330 0.154330 0.021517
0.706684 0.155246 0.022434
0.732038 0.156163 0.023351
0.757393 0.157080 0.024268
0.782747 0.157997 0.025184
0.808101 0.158914 0.026101
0.000115 0.159490 0.000115
0.025469 0.160407 0.001032
0.050824 0.161324 0.001949
0.076178 0.162241 0.002866
0.101532 0.163157 0.003782
0.126887 0.164074 0.004699
0.152241 0.164991 0.005616
0.177595 0.165908 0.006533
0.202950 0.166825 0.007450
0.228304 0.167742 0.008367
0.253658 0.168658 0.009283
0.279013 0.169575 0.010200
0.304367 0.170492 0.011117
0.329721 0.171409 0.012034
0.355076 0.172326 0.012951
0.380430 0.173243 0.013868
0.405784 0.174159 0.014784
0.431139 0.175076 0.015701
0.456493 0.175993 0.016618
0.481847 0.176910 0.017535
0.507202 0.177827 0.018452
0.532556 0.178744 0.019369
0.557910 0.179660 0.020285
0.583265 0.180577 0.021202
0.608619 0.181494 0.022119
0.633973 0.182411 0.023036
0.659328 0.183328 0.023953
0.684682 0.184245 0.024870
0.710036 0.185161 0.025786
0.735391 0.186078 0.026703
0.760745 0.186995 0.027620
0.786099 0.187912 0.028537
0.811454 0.188829 0.029454
0.003468 0.189405 0.003468
0.028822 0.190322 0.004384
0.054176 0.191239 0.005301
0.079531 0.192156 0.006218
0.104885 0.193072 0.007135
0.130239 0.193989 0.008052
0.155594 0.194906 0.008969
0.180948 0.195823 0.009885
0.206302 0.196740 0.010802
0.231657 0.197657 0.011719
0.257011 0.198573 0.012636
0.282365 0.199490 0.013553
0.307720 0.200407 0.014470
0.333074 0.201324 0.015386
0.358428 0.202241 0.016303
0.383783 0.203158 0.017220
0.409137 0.204074 0.018137
0.434491 0.204991 0.019054
0.459846 0.205908 0.019971
0.485200 0.206825 0.020887
0.510554 0.207742 0.021804
0.535909 0.208659 0.022721
0.561263 0.209575 0.023638
0.586617 0.210492 0.024555
0.611972 0.211409 0.025472
0.637326 0.212326 0.026388
0.662680 0.213243 0.027305
0.688035 0.214160 0.028222
0.713389 0.215076 0.029139
0.738743 0.215993 0.030056
0.764098 0.216910 0.030973
0.789452 0.217827 0.031889
0.814806 0.218744 0.032806
0.006820 0.219320 0.006820
0.032174 0.220237 0.007737
0.057529 0.221154 0.008654
0.082883 0.222071 0.009571
0.108237 0.222987 0.010487
0.133592 0.223904 0.011404
0.158946 0.224821 0.012321
0.184300 0.225738 0.013238
0.209655 0.226655 0.014155
0.235009 0.227572 0.015072
0.260363 0.228488 0.015988
0.285718 0.229405 0.016905
0.311072 0.230322 0.017822
0.336426 0.231239 0.018739
0.361781 0.232156 0.019656
0.387135 0.233073 0.020573
0.412489 0.233989 0.021489
0.437844 0.234906 0.022406
0.463198 0.235823 0.023323
0.488552 0.236740 0.024240
0.513907 0.237657 0.025157
0.539261 0.238574 0.026074
0.564615 0.239490 0.026990
0.589970 0.240407 0.027907
0.615324 0.241324 0.028824
0.640678 0.242241 0.029741
0.666033 0.243158 0.030658
0.691387 0.244075 0.031575
0.716741 0.244991 0.032491
0.742096 0.245908 0.033408
0.767450 0.246825 0.034325
0.792804 0.247742 0.035242
0.818159 0.248659 0.036159
0.010172 0.249235 0.010172
0.035527 0.250152 0.011089
0.060881 0.251069 0.012006
0.086236 0.251986 0.012923
0.111590 0.252902 0.013840
0.136944 0.253819 0.014757
0.162299 0.254736 0.015674
0.187653 0.255653 0.016590
0.213007 0.256570 0.017507
0.238362 0.257487 0.018424
0.263716 0.258403 0.019341
0.289070 0.259320 0.020258
0.314425 0.260237 0.021175
0.339779 0.261154 0.022091
0.365133 0.262071 0.023008
0.390488 0.262988 0.023925
0.415842 0.263904 0.024842
0.441196 0.264821 0.025759
0.466551 0.265738 0.026676
0.491905 0.266655 0.027592
0.517259 0.267572 0.028509
0.542614 0.268489 0.029426
0.567968 0.269405 0.030343
0.593322 0.270322 0.031260
0.618677 0.271239 0.032177
0.644031 0.272156 0.033093
0.669385 0.273073 0.034010
0.694740 0.273990 0.034927
0.720094 0.274906 0.035844
0.745448 0.275823 0.036761
0.770803 0.276740 0.037678
0.796157 0.277657 0.038594
0.821511 0.278574 0.039511
0.013525 0.279150 0.013525
0.038879 0.280067 0.014442
0.064234 0.280984 0.015359
0.089588 0.281901 0.016276
0.114942 0.282817 0.017192
0.140297 0.283734 0.018109
0.165651 0.284651 0.019026
0.191005 0.285568 0.019943
0.216360 0.286485 0.020860
0.241714 0.287402 0.021777
0.267068 0.288318 0.022693
0.292423 0.289235 0.023610
0.317777 0.290152 0.024527
0.343131 0.291069 0.025444
0.368486 0.291986 0.026361
0.393840 0.292903 0.027278
0.419194 0.293819 0.028194
0.444549 0.294736 0.029111
0.469903 0.295653 0.030028
0.495257 0.296570 0.030945
0.520612 0.297487 0.031862
0.545966 0.298404 0.032779
0.571320 0.299320 0.033695
0.596675 0.300237 0.034612
0.622029 0.301154 0.035529
0.647383 0.302071 0.036446
0.672738 0.302988 0.037363
0.698092 0.303905 0.038280
0.723446 0.304821 0.039196
0.748801 0.305738 0.040113
0.774155 0.306655 0.041030
0.799509 0.307572 0.041947
0.824864 0.308489 0.042864
0.016878 0.309065 0.016878
0.042232 0.309982 0.017794
0.067586 0.310899 0.018711
0.092941 0.311816 0.019628
0.118295 0.312732 0.020545
0.143649 0.313649 0.021462
0.169004 0.314566 0.022379
0.194358 0.315483 0.023295
0.219712 0.316400 0.024212
0.245067 0.317317 0.025129
0.270421 0.318233 0.026046
0.295775 0.319150 0.026963
0.321130 0.320067 0.027880
0.346484 0.320984 0.028796
0.371838 0.321901 0.029713
0.397193 0.322818 0.030630
0.422547 0.323734 0.031547
0.447901 0.324651 0.032464
0.473256 0.325568 0.033381
0.498610 0.326485 0.034297
0.523964 0.327402 0.035214
0.549319 0.328319 0.036131
0.574673 0.329235 0.037048
0.600027 0.330152 0.037965
0.625382 0.331069 0.038882
0.650736 0.331986 0.039798
0.676090 0.332903 0.040715
0.701445 0.333820 0.041632
0.726799 0.334736 0.042549
0.752153 0.335653 0.043466
0.777508 0.336570 0.044383
0.802862 0.337487 0.045299
0.828216 0.338404 0.046216
0.020230 0.338980 0.020230
0.045584 0.339897 0.021147
0.070939 0.340814 0.022064
0.096293 0.341731 0.022981
0.121647 0.342647 0.023897
0.147002 0.343564 0.024814
0.172356 0.344481 0.025731
0.197710 0.345398 0.026648
0.223065 0.346315 0.027565
0.248419 0.347232 0.028482
0.273773 0.348148 0.029398
0.299128 0.349065 0.030315
0.324482 0.349982 0.031232
0.349836 0.350899 0.032149
0.375191 0.351816 0.033066
0.400545 0.352733 0.033983
0.425899 0.353649 0.034899
0.451254 0.354566 0.035816
0.476608 0.355483 0.036733
0.501962 0.356400 0.037650
0.527317 0.357317 0.038567
0.552671 0.358234 0.039484
0.578025 0.359150 0.040400
0.603380 0.360067 0.041317
0.628734 0.360984 0.042234
0.654088 0.361901 0.043151
0.679443 0.362818 0.044068
0.704797 0.363735 0.044985
0.730151 0.364651 0.045901
0.755506 0.365568 0.046818
0.780860 0.366485 0.047735
0.806214 0.367402 0.048652
0.831569 0.368319 0.049569
0.023582 0.368895 0.023582
0.048937 0.369812 0.024499
0.074291 0.370729 0.025416
0.099646 0.371646 0.026333
0.125000 0.372562 0.027250
0.150354 0.373479 0.028167
0.175709 0.374396 0.029084
0.201063 0.375313 0.030000
0.226417 0.376230 0.030917
0.251772 0.377147 0.031834
0.277126 0.378063 0.032751
0.302480 0.378980 0.033668
0.327835 0.379897 0.034585
0.353189 0.380814 0.035501
0.378543 0.381731 0.036418
0.403898 0.382648 0.037335
0.429252 0.383564 0.038252
0.454606 0.384481 0.039169
0.479961 0.385398 0.040086
0.505315 0.386315 0.041002
0.530669 0.387232 0.041919
0.556024 0.388149 0.042836
0.581378 0.389065 0.043753
0.606732 0.389982 0.044670
0.632087 0.390899 0.045587
0.657441 0.391816 0.046503
0.682795 0.392733 0.047420
0.708150 0.393650 0.048337
0.733504 0.394566 0.049254
0.758858 0.395483 0.050171
0.784213 0.396400 0.051088
0.809567 0.397317 0.052004
0.834921 0.398234 0.052921
0.026935 0.398810 0.026935
0.052289 0.399727 0.027852
0.077644 0.400644 0.028769
0.102998 0.401561 0.029686
0.128352 0.402477 0.030602
0.153707 0.403394 0.031519
0.179061 0.404311 0.032436
0.204415 0.405228 0.033353
0.229770 0.406145 0.034270
0.255124 0.407062 0.035187
0.280478 0.407978 0.036103
0.305833 0.408895 0.037020
0.331187 0.409812 0.037937
0.356541 0.410729 0.038854
0.381896 0.411646 0.039771
0.407250 0.412563 0.040688
0.432604 0.413479 0.041604
0.457959 0.414396 0.042521
0.483313 0.415313 0.043438
0.508667 0.416230 0.044355
0.534022 0.417147 0.045272
0.559376 0.418064 0.046189
0.584730 0.418980 0.047105
0.610085 0.419897 0.048022
0.635439 0.420814 0.048939
0.660793 0.421731 0.049856
0.686148 0.422648 0.050773
0.711502 0.423565 0.051690
0.736856 0.424481 0.052606
0.762211 0.425398 0.053523
0.787565 0.426315 0.054440
0.812919 0.427232 0.055357
0.838274 0.428149 0.056274
0.030287 0.428725 0.030287
0.055642 0.429642 0.031204
0.080996 0.430559 0.032121
0.106351 0.431476 0.033038
0.131705 0.432392 0.033955
0.157059 0.433309 0.034872
0.182414 0.434226 0.035789
0.207768 0.435143 0.036705
0.233122 0.436060 0.037622
0.258477 0.436977 0.038539
0.283831 0.437893 0.039456
0.309185 0.438810 0.040373
0.334540 0.439727 0.041290
0.359894 0.440644 0.042206
0.385248 0.441561 0.043123
0.410603 0.442478 0.044040
0.435957 0.443394 0.044957
0.461311 0.444311 0.045874
0.486666 0.445228 0.046791
0.512020 0.446145 0.047707
0.537374 0.447062 0.048624
0.562729 0.447979 0.049541
0.588083 0.448895 0.050458
0.613437 0.449812 0.051375
0.638792 0.450729 0.052292
0.664146 0.451646 0.053208
0.689500 0.452563 0.054125
0.714855 0.453480 0.055042
0.740209 0.454396 0.055959
0.765563 0.455313 0.056876
0.790918 0.456230 0.057793
0.816272 0.457147 0.058709
0.841626 0.458064 0.059626
0.033640 0.458640 0.033640
0.058994 0.459557 0.034557
0.084349 0.460474 0.035474
0.109703 0.461391 0.036391
0.135057 0.462307 0.037307
0.160412 0.463224 0.038224
0.185766 0.464141 0.039141
0.211120 0.465058 0.040058
0.236475 0.465975 0.040975
0.261829 0.466892 0.041892
0.287183 0.467808 0.042808
0.312538 0.468725 0.043725
0.337892 0.469642 0.044642
0.363246 0.470559 0.045559
0.388601 0.471476 0.046476
0.413955 0.472393 0.047393
0.439309 0.473309 0.048309
0.464664 0.474226 0.049226
0.490018 0.475143 0.050143
0.515372 0.476060 0.051060
0.540727 0.476977 0.051977
0.566081 0.477894 0.052894
0.591435 0.478810 0.053810
0.616790 0.479727 0.054727
0.642144 0.480644 0.055644
0.667498 0.481561 0.056561
0.692853 0.482478 0.057478
0.718207 0.483395 0.058395
0.743561 0.484311 0.059311
0.768916 0.485228 0.060228
0.794270 0.486145 0.061145
0.819624 0.487062 0.062062
0.844979 0.487979 0.062979
0.036992 0.488555 0.036992
0.062347 0.489472 0.037909
0.087701 0.490389 0.038826
0.113056 0.491306 0.039743
0.138410 0.492222 0.040660
0.163764 0.493139 0.041577
0.189119 0.494056 0.042494
0.214473 0.494973 0.043410
0.239827 0.495890 0.044327
0.265182 0.496807 0.045244
0.290536 0.497723 0.046161
0.315890 0.498640 0.047078
0.341245 0.499557 0.047995
0.366599 0.500474 0.048911
0.391953 0.501391 0.049828
0.417308 0.502308 0.050745
0.442662 0.503224 0.051662
0.468016 0.504141 0.052579
0.493371 0.505058 0.053496
0.518725 0.505975 0.054412
0.544079 0.506892 0.055329
0.569434 0.507809 0.056246
0.594788 0.508725 0.057163
0.620142 0.509642 0.058080
0.645497 0.510559 0.058997
0.670851 0.511476 0.059913
0.696205 0.512393 0.060830
0.721560 0.513310 0.061747
0.746914 0.514226 0.062664
0.772268 0.515143 0.063581
0.797623 0.516060 0.064498
0.822977 0.516977 0.065414
0.848331 0.517894 0.066331
0.040345 0.518470 0.040345
0.065699 0.519387 0.041262
0.091054 0.520304 0.042179
0.116408 0.521221 0.043096
0.141762 0.522137 0.044012
0.167117 0.523054 0.044929
0.192471 0.523971 0.045846
0.217825 0.524888 0.046763
0.243180 0.525805 0.047680
0.268534 0.526722 0.048597
0.293888 0.527638 0.049513
0.319243 0.528555 0.050430
0.344597 0.529472 0.051347
0.369951 0.530389 0.052264
0.395306 0.531306 0.053181
0.420660 0.532223 0.054098
0.446014 0.533139 0.055014
0.471369 0.534056 0.055931
0.496723 0.534973 0.056848
0.522077 0.535890 0.057765
0.547432 0.536807 0.058682
0.572786 0.537724 0.059599
0.598140 0.538640 0.060515
0.623495 0.539557 0.061432
0.648849 0.540474 0.062349
0.674203 0.541391 0.063266
0.699558 0.542308 0.064183
0.724912 0.543225 0.065100
0.750266 0.544141 0.066016
0.775621 0.545058 0.066933
0.800975 0.545975 0.067850
0.826329 0.546892 0.068767
0.851684 0.547809 0.069684
0.043698 0.548385 0.043698
0.069052 0.549302 0.044614
0.094406 0.550219 0.045531
0.119761 0.551136 0.046448
0.145115 0.552052 0.047365
0.170469 0.552969 0.048282
0.195824 0.553886 0.049199
0.221178 0.554803 0.050115
0.246532 0.555720 0.051032
0.271887 0.556637 0.051949
0.297241 0.557553 0.052866
0.322595 0.558470 0.053783
0.347950 0.559387 0.054700
0.373304 0.560304 0.055616
0.398658 0.561221 0.056533
0.424013 0.562138 0.057450
0.449367 0.563054 0.058367
0.474721 0.563971 0.059284
0.500076 0.564888 0.060201
0.525430 0.565805 0.061117
0.550784 0.566722 0.062034
0.576139 0.567639 0.062951
0.601493 0.568555 0.063868
0.626847 0.569472 0.064785
0.652202 0.570389 0.065702
0.677556 0.571306 0.066618
0.702910 0.572223 0.067535
0.728265 0.573140 0.068452
0.753619 0.574056 0.069369
0.778973 0.574973 0.070286
0.804328 0.575890 0.071203
0.829682 0.576807 0.072119
0.855036 0.577724 0.073036
0.047050 0.578300 0.047050
0.072404 0.579217 0.047967
0.097759 0.580134 0.048884
0.123113 0.581051 0.049801
0.148467 0.581967 0.050717
0.173822 0.582884 0.051634
0.199176 0.583801 0.052551
0.224530 0.584718 0.053468
0.249885 0.585635 0.054385
0.275239 0.586552 0.055302
0.300593 0.587468 0.056218
0.325948 0.588385 0.057135
0.351302 0.589302 0.058052
0.376656 0.590219 0.058969
0.402011 0.591136 0.059886
0.427365 0.592053 0.060803
0.452719 0.592969 0.061719
0.478074 0.593886 0.062636
0.503428 0.594803 0.063553
0.528782 0.595720 0.064470
0.554137 0.596637 0.065387
0.579491 0.597554 0.066304
0.604845 0.598470 0.067220
0.630200 0.599387 0.068137
0.655554 0.600304 0.069054
0.680908 0.601221 0.069971
0.706263 0.602138 0.070888
0.731617 0.603055 0.071805
0.756971 0.603971 0.072721
0.782326 0.604888 0.073638
0.807680 0.605805 0.074555
0.833034 0.606722 0.075472
0.858389 0.607639 0.076389
0.050403 0.608215 0.050403
0.075757 0.609132 0.051319
0.101111 0.610049 0.052236
0.126466 0.610966 0.053153
0.151820 0.611882 0.054070
0.177174 0.612799 0.054987
0.202529 0.613716 0.055904
0.227883 0.614633 0.056820
0.253237 0.615550 0.057737
0.278592 0.616467 0.058654
0.303946 0.617383 0.059571
0.329300 0.618300 0.060488
0.354655 0.619217 0.061405
0.380009 0.620134 0.062321
0.405363 0.621051 0.063238
0.430718 0.621968 0.064155
0.456072 0.622884 0.065072
0.481426 0.623801 0.065989
0.506781 0.624718 0.066906
0.532135 0.625635 0.067822
0.557489 0.626552 0.068739
0.582844 0.627469 0.069656
0.608198 0.628385 0.070573
0.633552 0.629302 0.071490
0.658907 0.630219 0.072407
0.684261 0.631136 0.073323
0.709615 0.632053 0.074240
0.734970 0.632970 0.075157
0.760324 0.633886 0.076074
0.785678 0.634803 0.076991
0.811033 0.635720 0.077908
0.836387 0.636637 0.078824
0.861741 0.637554 0.079741
0.053755 0.638130 0.053755
0.079109 0.639047 0.054672
0.104464 0.639964 0.055589
0.129818 0.640881 0.056506
0.155172 0.641797 0.057422
0.180527 0.642714 0.058339
0.205881 0.643631 0.059256
0.231235 0.644548 0.060173
0.256590 0.645465 0.061090
0.281944 0.646382 0.062007
0.307298 0.647298 0.062923
0.332653 0.648215 0.063840
0.358007 0.649132 0.064757
0.383361 0.650049 0.065674
0.408716 0.650966 0.066591
0.434070 0.651883 0.067508
0.459424 0.652799 0.068424
0.484779 0.653716 0.069341
0.510133 0.654633 0.070258
0.535487 0.655550 0.071175
0.560842 0.656467 0.072092
0.586196 0.657384 0.073009
0.611550 0.658300 0.073925
0.636905 0.659217 0.074842
0.662259 0.660134 0.075759
0.687613 0.661051 0.076676
0.712968 0.661968 0.077593
0.738322 0.662885 0.078510
0.763676 0.663801 0.079426
0.789031 0.664718 0.080343
0.814385 0.665635 0.081260
0.839739 0.666552 0.082177
0.865094 0.667469 0.083094
0.057107 0.668045 0.057107
0.082462 0.668962 0.058024
0.107816 0.669879 0.058941
0.133171 0.670796 0.059858
0.158525 0.671712 0.060775
0.183879 0.672629 0.061692
0.209234 0.673546 0.062609
0.234588 0.674463 0.063525
0.259942 0.675380 0.064442
0.285297 0.676297 0.065359
0.310651 0.677213 0.066276
0.336005 0.678130 0.067193
0.361360 0.679047 0.068110
0.386714 0.679964 0.069026
0.412068 0.680881 0.069943
0.437423 0.681798 0.070860
0.462777 0.682714 0.071777
0.488131 0.683631 0.072694
0.513486 0.684548 0.073611
0.538840 0.685465 0.074527
0.564194 0.686382 0.075444
0.589549 0.687299 0.076361
0.614903 0.688215 0.077278
0.640257 0.689132 0.078195
0.665612 0.690049 0.079112
0.690966 0.690966 0.080028
0.716320 0.691883 0.080945
0.741675 0.692800 0.081862
0.767029 0.693716 0.082779
0.792383 0.694633 0.083696
0.817738 0.695550 0.084613
0.843092 0.696467 0.085529
0.868446 0.697384 0.086446
0.060460 0.697960 0.060460
0.085814 0.698877 0.061377
0.111169 0.699794 0.062294
0.136523 0.700711 0.063211
0.161877 0.701627 0.064127
0.187232 0.702544 0.065044
0.212586 0.703461 0.065961
0.237940 0.704378 0.066878
0.263295 0.705295 0.067795
0.288649 0.706212 0.068712
0.314003 0.707128 0.069628
0.339358 0.708045 0.070545
0.364712 0.708962 0.071462
0.390066 0.709879 0.072379
0.415421 0.710796 0.073296
0.440775 0.711713 0.074213
0.466129 0.712629 0.075129
0.491484 0.713546 0.076046
0.516838 0.714463 0.076963
0.542192 0.715380 0.077880
0.567547 0.716297 0.078797
0.592901 0.717214 0.079714
0.618255 0.718130 0.080630
0.643610 0.719047 0.081547
0.668964 0.719964 0.082464
0.694318 0.720881 0.083381
0.719673 0.721798 0.084298
0.745027 0.722715 0.085215
0.770381 0.723631 0.086131
0.795736 0.724548 0.087048
0.821090 0.725465 0.087965
0.846444 0.726382 0.088882
0.871799 0.727299 0.089799
0.063813 0.727875 0.063813
0.089167 0.728792 0.064729
0.114521 0.729709 0.065646
0.139876 0.730626 0.066563
0.165230 0.731542 0.067480
0.190584 0.732459 0.068397
0.215939 0.733376 0.069314
0.241293 0.734293 0.070230
0.266647 0.735210 0.071147
0.292002 0.736127 0.072064
0.317356 0.737043 0.072981
0.342710 0.737960 0.073898
0.368065 0.738877 0.074815
0.393419 0.739794 0.075731
0.418773 0.740711 0.076648
0.444128 0.741628 0.077565
0.469482 0.742544 0.078482
0.494836 0.743461 0.079399
0.520191 0.744378 0.080316
0.545545 0.745295 0.081232
0.570899 0.746212 0.082149
0.596254 0.747129 0.083066
0.621608 0.748045 0.083983
0.646962 0.748962 0.084900
0.672317 0.749879 0.085817
0.697671 0.750796 0.086733
0.723025 0.751713 0.087650
0.748380 0.752630 0.088567
0.773734 0.753546 0.089484
0.799088 0.754463 0.090401
0.824443 0.755380 0.091318
0.849797 0.756297 0.092234
0.875151 0.757214 0.093151
0.067165 0.757790 0.067165
0.092519 0.758707 0.068082
0.117874 0.759624 0.068999
0.143228 0.760541 0.069916
0.168582 0.761457 0.070832
0.193937 0.762374 0.071749
0.219291 0.763291 0.072666
0.244645 0.764208 0.073583
0.270000 0.765125 0.074500
0.295354 0.766042 0.075417
0.320708 0.766958 0.076333
0.346063 0.767875 0.077250
0.371417 0.768792 0.078167
0.396771 0.769709 0.079084
0.422126 0.770626 0.080001
0.447480 0.771543 0.080918
0.472834 0.772459 0.081834
0.498189 0.773376 0.082751
0.523543 0.774293 0.083668
0.548897 0.775210 0.084585
0.574252 0.776127 0.085502
0.599606 0.777044 0.086419
0.624960 0.777960 0.087335
0.650315 0.778877 0.088252
0.675669 0.779794 0.089169
0.701023 0.780711 0.090086
0.726378 0.781628 0.091003
