luts/cool_authority.cube
TITLE "cool_authority"
LUT_3D_SIZE 9
DOMAIN_MIN 0.0 0.0 0.0
DOMAIN_MAX 1.0 1.0 1.0
0.000000 0.000000 0.000000
0.081417 0.000000 0.000000
0.182835 0.000000 0.000000
0.284252 0.000000 0.000000
0.385669 0.000000 0.000000
0.487087 0.000000 0.000000
0.588504 0.002004 0.002004
0.689921 0.005671 0.005671
0.791339 0.009339 0.009339
0.000000 0.099660 0.000000
0.094827 0.103327 0.000000
0.196245 0.106995 0.000745
0.297662 0.110662 0.004412
0.399079 0.114329 0.008079
0.500497 0.117997 0.011747
0.601914 0.121664 0.015414
0.703331 0.125331 0.019081
0.804749 0.128999 0.022749
0.006820 0.219320 0.006820
0.108237 0.222987 0.010487
0.209655 0.226655 0.014155
0.311072 0.230322 0.017822
0.412489 0.233989 0.021489
0.513907 0.237657 0.025157
0.615324 0.241324 0.028824
0.716741 0.244991 0.032491
0.818159 0.248659 0.036159
0.020230 0.338980 0.020230
0.121647 0.342647 0.023897
0.223065 0.346315 0.027565
0.324482 0.349982 0.031232
0.425899 0.353649 0.034899
0.527317 0.357317 0.038567
0.628734 0.360984 0.042234
0.730151 0.364651 0.045901
0.831569 0.368319 0.049569
0.033640 0.458640 0.033640
0.135057 0.462307 0.037307
0.236475 0.465975 0.040975
0.337892 0.469642 0.044642
0.439309 0.473309 0.048309
0.540727 0.476977 0.051977
0.642144 0.480644 0.055644
0.743561 0.484311 0.059311
0.844979 0.487979 0.062979
0.047050 0.578300 0.047050
0.148467 0.581967 0.050717
0.249885 0.585635 0.054385
0.351302 0.589302 0.058052
0.452719 0.592969 0.061719
0.554137 0.596637 0.065387
0.655554 0.600304 0.069054
0.756971 0.603971 0.072721
0.858389 0.607639 0.076389
0.060460 0.697960 0.060460
0.161877 0.701627 0.064127
0.263295 0.705295 0.067795
0.364712 0.708962 0.071462
0.466129 0.712629 0.075129
0.567547 0.716297 0.078797
0.668964 0.719964 0.082464
0.770381 0.723631 0.086131
0.871799 0.727299 0.089799
0.073870 0.817620 0.073870
0.175287 0.821287 0.077537
0.276705 0.824955 0.081205
0.378122 0.828622 0.084872
0.479539 0.832289 0.088539
0.580957 0.835957 0.092207
0.682374 0.839624 0.095874
0.783791 0.843291 0.099541
0.885209 0.846959 0.103209
0.087280 0.937280 0.087280
0.188697 0.940947 0.090947
0.290115 0.944615 0.094615
0.391532 0.948282 0.098282
0.492949 0.951949 0.101949
0.594367 0.955617 0.105617
0.695784 0.959284 0.109284
0.797201 0.962951 0.112951
0.898619 0.966619 0.116619
0.000000 0.000000 0.096212
0.082879 0.000000 0.099879
0.184297 0.000000 0.103547
0.285714 0.000000 0.107214
0.387131 0.000000 0.110881
0.488549 0.000000 0.114549
0.589966 0.003466 0.118216
0.691384 0.007134 0.121883
0.792801 0.010801 0.125551
0.000000 0.101122 0.109622
0.096289 0.104789 0.113289
0.197707 0.108457 0.116957
0.299124 0.112124 0.120624
0.400541 0.115791 0.124291
0.501959 0.119459 0.127959
0.603376 0.123126 0.131626
0.704794 0.126794 0.135294
0.806211 0.130461 0.138961
0.008282 0.220782 0.123032
0.109699 0.224449 0.126699
0.211117 0.228117 0.130367
0.312534 0.231784 0.134034
0.413951 0.235451 0.137701
0.515369 0.239119 0.141369
0.616786 0.242786 0.145036
0.718203 0.246454 0.148704
0.819621 0.250121 0.152371
0.021692 0.340442 0.136442
0.123109 0.344109 0.140109
0.224527 0.347777 0.143777
0.325944 0.351444 0.147444
0.427361 0.355111 0.151111
0.528779 0.358779 0.154779
0.630196 0.362446 0.158446
0.731614 0.366113 0.162114
0.833031 0.369781 0.165781
0.035102 0.460102 0.149852
0.136519 0.463769 0.153519
0.237937 0.467437 0.157187
0.339354 0.471104 0.160854
0.440771 0.474771 0.164521
0.542189 0.478439 0.168189
0.643606 0.482106 0.171856
0.745024 0.485773 0.175524
0.846441 0.489441 0.179191
0.048512 0.579762 0.163262
0.149929 0.583429 0.166929
0.251347 0.587097 0.170597
0.352764 0.590764 0.174264
0.454181 0.594431 0.177931
0.555599 0.598099 0.181599
0.657016 0.601766 0.185266
0.758433 0.605433 0.188934
0.859851 0.609101 0.192601
0.061922 0.699422 0.176672
0.163339 0.703089 0.180339
0.264757 0.706757 0.184007
0.366174 0.710424 0.187674
0.467591 0.714091 0.191341
0.569009 0.717759 0.195009
0.670426 0.721426 0.198676
0.771844 0.725093 0.202344
0.873261 0.728761 0.206011
0.075332 0.819082 0.190082
0.176749 0.822749 0.193749
0.278167 0.826417 0.197417
0.379584 0.830084 0.201084
0.481001 0.833751 0.204751
0.582419 0.837419 0.208419
0.683836 0.841086 0.212086
0.785254 0.844753 0.215754
0.886671 0.848421 0.219421
0.088742 0.938742 0.203492
0.190159 0.942409 0.207159
0.291577 0.946077 0.210827
0.392994 0.949744 0.214494
0.494411 0.953411 0.218161
0.595829 0.957079 0.221829
0.697246 0.960746 0.225496
0.798663 0.964413 0.229163
0.900081 0.968081 0.232831
0.000000 0.000000 0.212424
0.084341 0.000000 0.216091
0.185759 0.000000 0.219759
0.287176 0.000000 0.223426
0.388593 0.000000 0.227094
0.490011 0.001261 0.230761
0.591428 0.004928 0.234428
0.692846 0.008596 0.238096
0.794263 0.012263 0.241763
0.000000 0.102584 0.225834
0.097751 0.106251 0.229501
0.199169 0.109919 0.233169
0.300586 0.113586 0.236836
0.402004 0.117253 0.240504
0.503421 0.120921 0.244171
0.604838 0.124588 0.247838
0.706256 0.128256 0.251506
0.807673 0.131923 0.255173
0.009744 0.222244 0.239244
0.111161 0.225911 0.242911
0.212579 0.229579 0.246579
0.313996 0.233246 0.250246
0.415413 0.236914 0.253914
0.516831 0.240581 0.257581
0.618248 0.244248 0.261248
0.719666 0.247916 0.264916
0.821083 0.251583 0.268583
0.023154 0.341904 0.252654
0.124571 0.345571 0.256321
0.225989 0.349239 0.259989
0.327406 0.352906 0.263656
0.428824 0.356573 0.267323
0.530241 0.360241 0.270991
0.631658 0.363908 0.274658
0.733076 0.367576 0.278326
0.834493 0.371243 0.281993
0.036564 0.461564 0.266064
0.137981 0.465231 0.269731
0.239399 0.468899 0.273399
0.340816 0.472566 0.277066
0.442234 0.476233 0.280733
0.543651 0.479901 0.284401
0.645068 0.483568 0.288068
0.746486 0.487236 0.291736
0.847903 0.490903 0.295403
0.049974 0.581224 0.279474
0.151391 0.584891 0.283141
0.252809 0.588559 0.286809
0.354226 0.592226 0.290476
0.455643 0.595893 0.294144
0.557061 0.599561 0.297811
0.658478 0.603228 0.301478
0.759896 0.606896 0.305146
0.861313 0.610563 0.308813
0.063384 0.700884 0.292884
0.164801 0.704551 0.296551
0.266219 0.708219 0.300219
0.367636 0.711886 0.303886
0.469054 0.715553 0.307553
0.570471 0.719221 0.311221
0.671888 0.722888 0.314888
0.773306 0.726556 0.318556
0.874723 0.730223 0.322223
0.076794 0.820544 0.306294
0.178211 0.824211 0.309961
0.279629 0.827879 0.313629
0.381046 0.831546 0.317296
0.482463 0.835213 0.320964
0.583881 0.838881 0.324631
0.685298 0.842548 0.328298
0.786716 0.846216 0.331966
0.888133 0.849883 0.335633
0.090204 0.940204 0.319704
0.191621 0.943871 0.323371
0.293039 0.947539 0.327039
0.394456 0.951206 0.330706
0.495874 0.954873 0.334373
0.597291 0.958541 0.338041
0.698708 0.962208 0.341708
0.800126 0.965876 0.345376
0.901543 0.969543 0.349043
0.000000 0.000000 0.328636
0.085803 0.000000 0.332303
0.187221 0.000000 0.335971
0.288638 0.000000 0.339638
0.390056 0.000000 0.343306
0.491473 0.002723 0.346973
0.592890 0.006390 0.350640
0.694308 0.010058 0.354308
0.795725 0.013725 0.357975
0.000000 0.104046 0.342046
0.099213 0.107714 0.345714
0.200631 0.111381 0.349381
0.302048 0.115048 0.353048
0.403466 0.118716 0.356716
0.504883 0.122383 0.360383
0.606300 0.126050 0.364050
0.707718 0.129718 0.367718
0.809135 0.133385 0.371385
0.011206 0.223706 0.355456
0.112624 0.227374 0.359123
0.214041 0.231041 0.362791
0.315458 0.234708 0.366458
0.416876 0.238376 0.370126
0.518293 0.242043 0.373793
0.619710 0.245710 0.377460
0.721128 0.249378 0.381128
0.822545 0.253045 0.384795
0.024616 0.343366 0.368866
0.126034 0.347033 0.372534
0.227451 0.350701 0.376201
0.328868 0.354368 0.379868
0.430286 0.358036 0.383536
0.531703 0.361703 0.387203
0.633120 0.365370 0.390870
0.734538 0.369038 0.394538
0.835955 0.372705 0.398205
0.038026 0.463026 0.382276
0.139444 0.466693 0.385943
0.240861 0.470361 0.389611
0.342278 0.474028 0.393278
0.443696 0.477696 0.396946
0.545113 0.481363 0.400613
0.646530 0.485030 0.404280
0.747948 0.488698 0.407948
0.849365 0.492365 0.411615
0.051436 0.582686 0.395686
0.152854 0.586353 0.399354
0.254271 0.590021 0.403021
0.355688 0.593688 0.406688
0.457106 0.597356 0.410356
0.558523 0.601023 0.414023
0.659940 0.604690 0.417690
0.761358 0.608358 0.421358
0.862775 0.612025 0.425025
0.064846 0.702346 0.409096
0.166264 0.706013 0.412764
0.267681 0.709681 0.416431
0.369098 0.713348 0.420098
0.470516 0.717016 0.423766
0.571933 0.720683 0.427433
0.673350 0.724350 0.431100
0.774768 0.728018 0.434768
0.876185 0.731685 0.438435
0.078256 0.822006 0.422506
0.179674 0.825673 0.426173
0.281091 0.829341 0.429841
0.382508 0.833008 0.433508
0.483926 0.836676 0.437176
0.585343 0.840343 0.440843
0.686760 0.844010 0.444510
0.788178 0.847678 0.448178
0.889595 0.851345 0.451845
0.091666 0.941666 0.435916
0.193083 0.945333 0.439584
0.294501 0.949001 0.443251
0.395918 0.952668 0.446918
0.497336 0.956336 0.450586
0.598753 0.960003 0.454253
0.700170 0.963670 0.457920
0.801588 0.967338 0.461588
0.903005 0.971005 0.465255
0.000000 0.000000 0.444848
0.087266 0.000000 0.448516
0.188683 0.000000 0.452183
0.290100 0.000000 0.455850
0.391518 0.000518 0.459518
0.492935 0.004185 0.463185
0.594352 0.007852 0.466852
0.695770 0.011520 0.470520
0.797187 0.015187 0.474187
0.000000 0.105508 0.458258
0.100676 0.109176 0.461926
0.202093 0.112843 0.465593
0.303510 0.116510 0.469260
0.404928 0.120178 0.472928
0.506345 0.123845 0.476595
0.607762 0.127512 0.480262
0.709180 0.131180 0.483930
0.810597 0.134847 0.487597
0.012668 0.225168 0.471668
0.114086 0.228836 0.475336
0.215503 0.232503 0.479003
0.316920 0.236170 0.482670
0.418338 0.239838 0.486338
0.519755 0.243505 0.490005
0.621172 0.247172 0.493672
0.722590 0.250840 0.497340
0.824007 0.254507 0.501007
0.026078 0.344828 0.485078
0.127496 0.348496 0.488746
0.228913 0.352163 0.492413
0.330330 0.355830 0.496080
0.431748 0.359498 0.499748
0.533165 0.363165 0.503415
0.634582 0.366832 0.507082
0.736000 0.370500 0.510750
0.837417 0.374167 0.514417
0.039488 0.464488 0.498488
0.140906 0.468156 0.502156
0.242323 0.471823 0.505823
0.343740 0.475490 0.509490
0.445158 0.479158 0.513158
0.546575 0.482825 0.516825
0.647992 0.486492 0.520492
0.749410 0.490160 0.524160
0.850827 0.493827 0.527827
0.052898 0.584148 0.511898
0.154316 0.587816 0.515566
0.255733 0.591483 0.519233
0.357150 0.595150 0.522900
0.458568 0.598818 0.526568
0.559985 0.602485 0.530235
0.661402 0.606152 0.533902
0.762820 0.609820 0.537570
0.864237 0.613487 0.541237
0.066308 0.703808 0.525308
0.167726 0.707476 0.528976
0.269143 0.711143 0.532643
0.370560 0.714810 0.536310
0.471978 0.718478 0.539978
0.573395 0.722145 0.543645
0.674812 0.725812 0.547312
0.776230 0.729480 0.550980
0.877647 0.733147 0.554647
0.079718 0.823468 0.538718
0.181136 0.827136 0.542386
0.282553 0.830803 0.546053
0.383970 0.834470 0.549720
0.485388 0.838138 0.553388
0.586805 0.841805 0.557055
0.688222 0.845472 0.560722
0.789640 0.849140 0.564390
0.891057 0.852807 0.568057
0.093128 0.943128 0.552128
0.194546 0.946796 0.555796
0.295963 0.950463 0.559463
0.397380 0.954130 0.563130
0.498798 0.957798 0.566798
0.600215 0.961465 0.570465
0.701632 0.965132 0.574132
0.803050 0.968800 0.577800
0.904467 0.972467 0.581467
0.000000 0.000000 0.561060
0.088728 0.000000 0.564728
0.190145 0.000000 0.568395
0.291562 0.000000 0.572062
0.392980 0.001980 0.575730
0.494397 0.005647 0.579397
0.595814 0.009314 0.583064
0.697232 0.012982 0.586732
0.798649 0.016649 0.590399
0.000720 0.106970 0.574470
0.102138 0.110638 0.578138
0.203555 0.114305 0.581805
0.304972 0.117972 0.585472
0.406390 0.121640 0.589140
0.507807 0.125307 0.592807
0.609224 0.128974 0.596474
0.710642 0.132642 0.600142
0.812059 0.136309 0.603809
0.014130 0.226630 0.587880
0.115548 0.230298 0.591548
0.216965 0.233965 0.595215
0.318382 0.237632 0.598882
0.419800 0.241300 0.602550
0.521217 0.244967 0.606217
0.622634 0.248634 0.609884
0.724052 0.252302 0.613552
0.825469 0.255969 0.617219
0.027540 0.346290 0.601290
0.128958 0.349958 0.604958
0.230375 0.353625 0.608625
0.331792 0.357292 0.612292
0.433210 0.360960 0.615960
0.534627 0.364627 0.619627
0.636044 0.368294 0.623294
0.737462 0.371962 0.626962
0.838879 0.375629 0.630629
0.040950 0.465950 0.614700
0.142368 0.469618 0.618368
0.243785 0.473285 0.622035
0.345202 0.476952 0.625702
0.446620 0.480620 0.629370
0.548037 0.484287 0.633037
0.649454 0.487954 0.636704
0.750872 0.491622 0.640372
0.852289 0.495289 0.644039
0.054360 0.585610 0.628110
0.155778 0.589278 0.631778
0.257195 0.592945 0.635445
0.358612 0.596612 0.639112
0.460030 0.600280 0.642780
0.561447 0.603947 0.646447
0.662864 0.607614 0.650114
0.764282 0.611282 0.653782
0.865699 0.614949 0.657449
0.067770 0.705270 0.641520
0.169188 0.708938 0.645188
0.270605 0.712605 0.648855
0.372022 0.716272 0.652522
0.473440 0.719940 0.656190
0.574857 0.723607 0.659857
0.676274 0.727274 0.663524
0.777692 0.730942 0.667192
0.879109 0.734609 0.670859
0.081180 0.824930 0.654930
0.182598 0.828598 0.658598
0.284015 0.832265 0.662265
0.385432 0.835932 0.665932
0.486850 0.839600 0.669600
0.588267 0.843267 0.673267
0.689684 0.846934 0.676934
0.791102 0.850602 0.680602
0.892519 0.854269 0.684269
0.094590 0.944590 0.668340
0.196008 0.948258 0.672008
0.297425 0.951925 0.675675
0.398842 0.955592 0.679342
0.500260 0.959260 0.683010
0.601677 0.962927 0.686677
0.703094 0.966594 0.690344
0.804512 0.970262 0.694012
0.905929 0.973929 0.697679
0.000000 0.000000 0.677272
0.090190 0.000000 0.680940
0.191607 0.000000 0.684607
0.293024 0.000000 0.688274
0.394442 0.003442 0.691942
0.495859 0.007109 0.695609
0.597276 0.010776 0.699276
0.698694 0.014444 0.702944
0.800111 0.018111 0.706611
0.002182 0.108432 0.690682
0.103600 0.112100 0.694350
0.205017 0.115767 0.698017
0.306434 0.119434 0.701684
0.407852 0.123102 0.705352
0.509269 0.126769 0.709019
0.610686 0.130436 0.712686
0.712104 0.134104 0.716354
0.813521 0.137771 0.720021
0.015592 0.228092 0.704092
0.117010 0.231760 0.707760
0.218427 0.235427 0.711427
0.319844 0.239094 0.715094
0.421262 0.242762 0.718762
0.522679 0.246429 0.722429
0.624096 0.250096 0.726096
0.725514 0.253764 0.729764
0.826931 0.257431 0.733431
0.029002 0.347752 0.717502
0.130420 0.351420 0.721170
0.231837 0.355087 0.724837
0.333254 0.358754 0.728504
0.434672 0.362422 0.732172
0.536089 0.366089 0.735839
0.637506 0.369756 0.739506
0.738924 0.373424 0.743174
0.840341 0.377091 0.746841
0.042412 0.467412 0.730912
0.143830 0.471080 0.734580
0.245247 0.474747 0.738247
0.346664 0.478414 0.741914
0.448082 0.482082 0.745582
0.549499 0.485749 0.749249
0.650916 0.489416 0.752916
0.752334 0.493084 0.756584
0.853751 0.496751 0.760251
0.055822 0.587072 0.744322
0.157240 0.590740 0.747990
0.258657 0.594407 0.751657
0.360074 0.598074 0.755324
0.461492 0.601742 0.758992
0.562909 0.605409 0.762659
0.664326 0.609076 0.766326
0.765744 0.612744 0.769994
0.867161 0.616411 0.773661
0.069232 0.706732 0.757732
0.170650 0.710400 0.761400
0.272067 0.714067 0.765067
0.373484 0.717734 0.768734
0.474902 0.721402 0.772402
0.576319 0.725069 0.776069
0.677736 0.728736 0.779736
0.779154 0.732404 0.783404
0.880571 0.736071 0.787071
0.082642 0.826392 0.771142
0.184060 0.830060 0.774810
0.285477 0.833727 0.778477
0.386894 0.837394 0.782144
0.488312 0.841062 0.785812
0.589729 0.844729 0.789479
0.691146 0.848396 0.793146
0.792564 0.852064 0.796814
0.893981 0.855731 0.800481
0.096052 0.946052 0.784552
0.197470 0.949720 0.788220
0.298887 0.953387 0.791887
0.400304 0.957054 0.795554
0.501722 0.960722 0.799222
0.603139 0.964389 0.802889
0.704556 0.968056 0.806556
0.805974 0.971724 0.810224
0.907391 0.975391 0.813891
0.000000 0.000000 0.793484
0.091652 0.000000 0.797152
0.193069 0.000000 0.800819
0.294486 0.001236 0.804486
0.395904 0.004904 0.808154
0.497321 0.008571 0.811821
0.598738 0.012238 0.815488
0.700156 0.015906 0.819156
0.801573 0.019573 0.822823
0.003644 0.109894 0.806894
0.105062 0.113562 0.810562
0.206479 0.117229 0.814229
0.307896 0.120896 0.817896
0.409314 0.124564 0.821564
0.510731 0.128231 0.825231
0.612148 0.131898 0.828898
0.713566 0.135566 0.832566
0.814983 0.139233 0.836233
0.017054 0.229554 0.820304
0.118472 0.233222 0.823972
0.219889 0.236889 0.827639
0.321306 0.240556 0.831306
0.422724 0.244224 0.834974
0.524141 0.247891 0.838641
0.625558 0.251558 0.842308
0.726976 0.255226 0.845976
0.828393 0.258893 0.849643
0.030464 0.349214 0.833714
0.131882 0.352882 0.837382
0.233299 0.356549 0.841049
0.334716 0.360216 0.844716
0.436134 0.363884 0.848384
0.537551 0.367551 0.852051
0.638968 0.371218 0.855718
0.740386 0.374886 0.859386
0.841803 0.378553 0.863053
0.043874 0.468874 0.847124
0.145292 0.472542 0.850792
0.246709 0.476209 0.854459
0.348126 0.479876 0.858126
0.449544 0.483544 0.861794
0.550961 0.487211 0.865461
0.652378 0.490878 0.869128
0.753796 0.494546 0.872796
0.855213 0.498213 0.876463
0.057284 0.588534 0.860534
0.158702 0.592202 0.864202
0.260119 0.595869 0.867869
0.361536 0.599536 0.871536
0.462954 0.603204 0.875204
0.564371 0.606871 0.878871
0.665788 0.610538 0.882538
0.767206 0.614206 0.886206
0.868623 0.617873 0.889873
0.070694 0.708194 0.873944
0.172112 0.711862 0.877612
0.273529 0.715529 0.881279
0.374946 0.719196 0.884946
0.476364 0.722864 0.888614
0.577781 0.726531 0.892281
0.679198 0.730198 0.895948
0.780616 0.733866 0.899616
0.882033 0.737533 0.903283
0.084104 0.827854 0.887354
0.185522 0.831522 0.891022
0.286939 0.835189 0.894689
0.388356 0.838856 0.898356
0.489774 0.842524 0.902024
0.591191 0.846191 0.905691
0.692608 0.849858 0.909358
0.794026 0.853526 0.913026
0.895443 0.857193 0.916693
0.097514 0.947514 0.900764
0.198932 0.951182 0.904432
0.300349 0.954849 0.908099
0.401766 0.958516 0.911766
0.503184 0.962184 0.915434
0.604601 0.965851 0.919101
0.706018 0.969518 0.922768
0.807436 0.973186 0.926436
0.908853 0.976853 0.930103
0.000000 0.000000 0.909696
0.093114 0.000000 0.913364
0.194531 0.000000 0.917031
0.295948 0.002698 0.920698
0.397366 0.006366 0.924366
0.498783 0.010033 0.928033
0.600201 0.013701 0.931701
0.701618 0.017368 0.935368
0.803035 0.021035 0.939035
0.005106 0.111356 0.923106
0.106524 0.115024 0.926774
0.207941 0.118691 0.930441
0.309358 0.122358 0.934108
0.410776 0.126026 0.937776
0.512193 0.129693 0.941443
0.613611 0.133361 0.945110
0.715028 0.137028 0.948778
0.816445 0.140695 0.952445
0.018516 0.231016 0.936516
0.119934 0.234684 0.940184
0.221351 0.238351 0.943851
0.322768 0.242018 0.947518
0.424186 0.245686 0.951186
0.525603 0.249353 0.954853
0.627020 0.253020 0.958520
0.728438 0.256688 0.962188
0.829855 0.260355 0.965855
0.031926 0.350676 0.949926
0.133344 0.354344 0.953594
0.234761 0.358011 0.957261
0.336178 0.361678 0.960928
0.437596 0.365346 0.964596
0.539013 0.369013 0.968263
0.640431 0.372680 0.971931
0.741848 0.376348 0.975598
0.843265 0.380015 0.979265
0.045336 0.470336 0.963336
0.146754 0.474004 0.967004
0.248171 0.477671 0.970671
0.349588 0.481338 0.974338
0.451006 0.485006 0.978006
0.552423 0.488673 0.981673
0.653841 0.492340 0.985340
0.755258 0.496008 0.989008
0.856675 0.499675 0.992675
0.058746 0.589996 0.976746
0.160164 0.593664 0.980414
0.261581 0.597331 0.984081
0.362998 0.600998 0.987748
0.464416 0.604666 0.991416
0.565833 0.608333 0.995083
0.667251 0.612000 0.998751
0.768668 0.615668 1.000000
0.870085 0.619335 1.000000
0.072156 0.709656 0.990156
0.173574 0.713324 0.993824
0.274991 0.716991 0.997491
0.376408 0.720658 1.000000
0.477826 0.724326 1.000000
0.579243 0.727993 1.000000
0.680661 0.731660 1.000000
0.782078 0.735328 1.000000
0.883495 0.738995 1.000000
0.085566 0.829316 1.000000
0.186984 0.832984 1.000000
0.288401 0.836651 1.000000
0.389818 0.840318 1.000000
0.491236 0.843986 1.000000
0.592653 0.847653 1.000000
0.694071 0.851320 1.000000
0.795488 0.854988 1.000000
0.896905 0.858655 1.000000
0.098976 0.948976 1.000000
0.200394 0.952644 1.000000
0.301811 0.956311 1.000000
0.403228 0.959978 1.000000
0.504646 0.963646 1.000000
0.606063 0.967313 1.000000
0.707481 0.970981 1.000000
0.808898 0.974648 1.000000
0.910315 0.978315 1.000000
