luts/cool_authority.cube
TITLE "cool_authority"
LUT_3D_SIZE 5
DOMAIN_MIN 0.0 0.0 0.0
DOMAIN_MAX 1.0 1.0 1.0
0.000000 0.000000 0.000000
0.182835 0.000000 0.000000
0.385669 0.000000 0.000000
0.588504 0.002004 0.002004
0.791339 0.009339 0.009339
0.006820 0.219320 0.006820
0.209655 0.226655 0.014155
0.412489 0.233989 0.021489
0.615324 0.241324 0.028824
0.818159 0.248659 0.036159
0.033640 0.458640 0.033640
0.236475 0.465975 0.040975
0.439309 0.473309 0.048309
0.642144 0.480644 0.055644
0.844979 0.487979 0.062979
0.060460 0.697960 0.060460
0.263295 0.705295 0.067795
0.466129 0.712629 0.075129
0.668964 0.719964 0.082464
0.871799 0.727299 0.089799
0.087280 0.937280 0.087280
0.290115 0.944615 0.094615
0.492949 0.951949 0.101949
0.695784 0.959284 0.109284
0.898619 0.966619 0.116619
0.000000 0.000000 0.212424
0.185759 0.000000 0.219759
0.388593 0.000000 0.227094
0.591428 0.004928 0.234428
0.794263 0.012263 0.241763
0.009744 0.222244 0.239244
0.212579 0.229579 0.246579
0.415413 0.236914 0.253914
0.618248 0.244248 0.261248
0.821083 0.251583 0.268583
0.036564 0.461564 0.266064
0.239399 0.468899 0.273399
0.442234 0.476233 0.280733
0.645068 0.483568 0.288068
0.847903 0.490903 0.295403
0.063384 0.700884 0.292884
0.266219 0.708219 0.300219
0.469054 0.715553 0.307553
0.671888 0.722888 0.314888
0.874723 0.730223 0.322223
0.090204 0.940204 0.319704
0.293039 0.947539 0.327039
0.495874 0.954873 0.334373
0.698708 0.962208 0.341708
0.901543 0.969543 0.349043
0.000000 0.000000 0.444848
0.188683 0.000000 0.452183
0.391518 0.000518 0.459518
0.594352 0.007852 0.466852
0.797187 0.015187 0.474187
0.012668 0.225168 0.471668
0.215503 0.232503 0.479003
0.418338 0.239838 0.486338
0.621172 0.247172 0.493672
0.824007 0.254507 0.501007
0.039488 0.464488 0.498488
0.242323 0.471823 0.505823
0.445158 0.479158 0.513158
0.647992 0.486492 0.520492
0.850827 0.493827 0.527827
0.066308 0.703808 0.525308
0.269143 0.711143 0.532643
0.471978 0.718478 0.539978
0.674812 0.725812 0.547312
0.877647 0.733147 0.554647
0.093128 0.943128 0.552128
0.295963 0.950463 0.559463
0.498798 0.957798 0.566798
0.701632 0.965132 0.574132
0.904467 0.972467 0.581467
0.000000 0.000000 0.677272
0.191607 0.000000 0.684607
0.394442 0.003442 0.691942
0.597276 0.010776 0.699276
0.800111 0.018111 0.706611
0.015592 0.228092 0.704092
0.218427 0.235427 0.711427
0.421262 0.242762 0.718762
0.624096 0.250096 0.726096
0.826931 0.257431 0.733431
0.042412 0.467412 0.730912
0.245247 0.474747 0.738247
0.448082 0.482082 0.745582
0.650916 0.489416 0.752916
0.853751 0.496751 0.760251
0.069232 0.706732 0.757732
0.272067 0.714067 0.765067
0.474902 0.721402 0.772402
0.677736 0.728736 0.779736
0.880571 0.736071 0.787071
0.096052 0.946052 0.784552
0.298887 0.953387 0.791887
0.501722 0.960722 0.799222
0.704556 0.968056 0.806556
0.907391 0.975391 0.813891
0.000000 0.000000 0.909696
0.194531 0.000000 0.917031
0.397366 0.006366 0.924366
0.600201 0.013701 0.931701
0.803035 0.021035 0.939035
0.018516 0.231016 0.936516
0.221351 0.238351 0.943851
0.424186 0.245686 0.951186
0.627020 0.253020 0.958520
0.829855 0.260355 0.965855
0.045336 0.470336 0.963336
0.248171 0.477671 0.970671
0.451006 0.485006 0.978006
0.653841 0.492340 0.985340
0.856675 0.499675 0.992675
0.072156 0.709656 0.990156
0.274991 0.716991 0.997491
0.477826 0.724326 1.000000
0.680661 0.731660 1.000000
0.883495 0.738995 1.000000
0.098976 0.948976 1.000000
0.301811 0.956311 1.000000
0.504646 0.963646 1.000000
0.707481 0.970981 1.000000
0.910315 0.978315 1.000000
