luts/warm_tension.cube
TITLE "warm_tension"
LUT_3D_SIZE 5
DOMAIN_MIN 0.0 0.0 0.0
DOMAIN_MAX 1.0 1.0 1.0
0.000000 0.000000 0.000000
0.204134 0.000000 0.000000
0.448268 0.000000 0.000000
0.692402 0.000000 0.000000
0.936536 0.000000 0.000000
0.000000 0.202880 0.000000
0.222014 0.208514 0.000000
0.466148 0.214148 0.000000
0.710282 0.219782 0.000000
0.954416 0.225416 0.000416
0.000000 0.445760 0.000000
0.239894 0.451394 0.001394
0.484028 0.457028 0.007028
0.728162 0.462662 0.012662
0.972296 0.468296 0.018296
0.013640 0.688640 0.013640
0.257774 0.694274 0.019274
0.501908 0.699908 0.024908
0.746042 0.705542 0.030542
0.990176 0.711176 0.036176
0.031520 0.931520 0.031520
0.275654 0.937154 0.037154
0.519788 0.942788 0.042788
0.763922 0.948422 0.048422
1.000000 0.954056 0.054056
0.000000 0.000000 0.173197
0.205831 0.000000 0.178831
0.449965 0.000000 0.184465
0.694098 0.000000 0.190098
0.938232 0.000000 0.195732
0.000000 0.204577 0.191077
0.223711 0.210211 0.196711
0.467845 0.215845 0.202344
0.711978 0.221478 0.207978
0.956112 0.227112 0.213612
0.000000 0.447457 0.208957
0.241591 0.453091 0.214591
0.485725 0.458725 0.220224
0.729858 0.464358 0.225858
0.973992 0.469992 0.231492
0.015337 0.690337 0.226837
0.259471 0.695971 0.232471
0.503605 0.701604 0.238104
0.747738 0.707238 0.243738
0.991872 0.712872 0.249372
0.033217 0.933217 0.244717
0.277351 0.938851 0.250351
0.521484 0.944484 0.255985
0.765618 0.950118 0.261618
1.000000 0.955752 0.267252
0.000000 0.000000 0.386393
0.207527 0.000000 0.392027
0.451661 0.000000 0.397661
0.695795 0.000000 0.403295
0.939929 0.000000 0.408929
0.000000 0.206273 0.404273
0.225407 0.211907 0.409907
0.469541 0.217541 0.415541
0.713675 0.223175 0.421175
0.957809 0.228809 0.426809
0.000000 0.449153 0.422153
0.243287 0.454787 0.427787
0.487421 0.460421 0.433421
0.731555 0.466055 0.439055
0.975689 0.471689 0.444689
0.017033 0.692033 0.440033
0.261167 0.697667 0.445667
0.505301 0.703301 0.451301
0.749435 0.708935 0.456935
0.993569 0.714569 0.462569
0.034913 0.934913 0.457913
0.279047 0.940547 0.463547
0.523181 0.946181 0.469181
0.767315 0.951815 0.474815
1.000000 0.957449 0.480449
0.000000 0.000000 0.599590
0.209224 0.000000 0.605224
0.453358 0.000000 0.610858
0.697492 0.000000 0.616492
0.941626 0.000000 0.622126
0.000000 0.207970 0.617470
0.227104 0.213604 0.623104
0.471238 0.219238 0.628738
0.715372 0.224872 0.634372
0.959506 0.230506 0.640006
0.000850 0.450850 0.635350
0.244984 0.456484 0.640984
0.489118 0.462118 0.646618
0.733252 0.467752 0.652252
0.977386 0.473386 0.657886
0.018730 0.693730 0.653230
0.262864 0.699364 0.658864
0.506998 0.704998 0.664498
0.751132 0.710632 0.670132
0.995266 0.716266 0.675766
0.036610 0.936610 0.671110
0.280744 0.942244 0.676744
0.524878 0.947878 0.682378
0.769012 0.953512 0.688012
1.000000 0.959146 0.693646
0.000000 0.000000 0.812787
0.210921 0.000000 0.818421
0.455055 0.000000 0.824055
0.699188 0.000000 0.829688
0.943322 0.000000 0.835322
0.000000 0.209667 0.830667
0.228801 0.215301 0.836301
0.472935 0.220935 0.841935
0.717068 0.226568 0.847568
0.961202 0.232202 0.853202
0.002547 0.452547 0.848547
0.246681 0.458181 0.854181
0.490815 0.463815 0.859815
0.734949 0.469448 0.865448
0.979082 0.475082 0.871082
0.020427 0.695427 0.866427
0.264561 0.701061 0.872061
0.508695 0.706695 0.877695
0.752829 0.712328 0.883328
0.996962 0.717962 0.888962
0.038307 0.938307 0.884307
0.282441 0.943941 0.889941
0.526575 0.949575 0.895575
0.770709 0.955209 0.901208
1.000000 0.960842 0.906842
