luts/warm_tension.cube
TITLE "warm_tension"
LUT_3D_SIZE 33
DOMAIN_MIN 0.0 0.0 0.0
DOMAIN_MAX 1.0 1.0 1.0
0.000000 0.000000 0.000000
0.000000 0.000000 0.000000
0.021033 0.000000 0.000000
0.051550 0.000000 0.000000
0.082067 0.000000 0.000000
0.112584 0.000000 0.000000
0.143100 0.000000 0.000000
0.173617 0.000000 0.000000
0.204134 0.000000 0.000000
0.234651 0.000000 0.000000
0.265167 0.000000 0.000000
0.295684 0.000000 0.000000
0.326201 0.000000 0.000000
0.356718 0.000000 0.000000
0.387234 0.000000 0.000000
0.417751 0.000000 0.000000
0.448268 0.000000 0.000000
0.478785 0.000000 0.000000
0.509301 0.000000 0.000000
0.539818 0.000000 0.000000
0.570335 0.000000 0.000000
0.600851 0.000000 0.000000
0.631368 0.000000 0.000000
0.661885 0.000000 0.000000
0.692402 0.000000 0.000000
0.722918 0.000000 0.000000
0.753435 0.000000 0.000000
0.783952 0.000000 0.000000
0.814469 0.000000 0.000000
0.844985 0.000000 0.000000
0.875502 0.000000 0.000000
0.906019 0.000000 0.000000
0.936536 0.000000 0.000000
0.000000 0.000000 0.000000
0.000000 0.000000 0.000000
0.023268 0.000000 0.000000
0.053785 0.000000 0.000000
0.084302 0.000000 0.000000
0.114819 0.000000 0.000000
0.145335 0.000000 0.000000
0.175852 0.000000 0.000000
0.206369 0.000000 0.000000
0.236886 0.000000 0.000000
0.267402 0.000000 0.000000
0.297919 0.000000 0.000000
0.328436 0.000000 0.000000
0.358953 0.000000 0.000000
0.389469 0.000219 0.000000
0.419986 0.000924 0.000000
0.450503 0.001628 0.000000
0.481020 0.002332 0.000000
0.511536 0.003036 0.000000
0.542053 0.003741 0.000000
0.572570 0.004445 0.000000
0.603086 0.005149 0.000000
0.633603 0.005853 0.000000
0.664120 0.006557 0.000000
0.694637 0.007262 0.000000
0.725153 0.007966 0.000000
0.755670 0.008670 0.000000
0.786187 0.009374 0.000000
0.816704 0.010079 0.000000
0.847220 0.010783 0.000000
0.877737 0.011487 0.000000
0.908254 0.012191 0.000000
0.938771 0.012896 0.000000
0.000000 0.020720 0.000000
0.000000 0.021424 0.000000
0.025503 0.022128 0.000000
0.056020 0.022833 0.000000
0.086537 0.023537 0.000000
0.117054 0.024241 0.000000
0.147570 0.024945 0.000000
0.178087 0.025650 0.000000
0.208604 0.026354 0.000000
0.239121 0.027058 0.000000
0.269637 0.027762 0.000000
0.300154 0.028467 0.000000
0.330671 0.029171 0.000000
0.361188 0.029875 0.000000
0.391704 0.030579 0.000000
0.422221 0.031284 0.000000
0.452738 0.031988 0.000000
0.483255 0.032692 0.000000
0.513771 0.033396 0.000000
0.544288 0.034101 0.000000
0.574805 0.034805 0.000000
0.605321 0.035509 0.000000
0.635838 0.036213 0.000000
0.666355 0.036917 0.000000
0.696872 0.037622 0.000000
0.727388 0.038326 0.000000
0.757905 0.039030 0.000000
0.788422 0.039734 0.000000
0.818939 0.040439 0.000000
0.849455 0.041143 0.000000
0.879972 0.041847 0.000000
0.910489 0.042551 0.000000
0.941006 0.043256 0.000000
0.000000 0.051080 0.000000
0.000000 0.051784 0.000000
0.027738 0.052488 0.000000
0.058255 0.053193 0.000000
0.088772 0.053897 0.000000
0.119289 0.054601 0.000000
0.149805 0.055305 0.000000
0.180322 0.056010 0.000000
0.210839 0.056714 0.000000
0.241356 0.057418 0.000000
0.271872 0.058122 0.000000
0.302389 0.058827 0.000000
0.332906 0.059531 0.000000
0.363423 0.060235 0.000000
0.393939 0.060939 0.000000
0.424456 0.061644 0.000000
0.454973 0.062348 0.000000
0.485490 0.063052 0.000000
0.516006 0.063756 0.000000
0.546523 0.064461 0.000000
0.577040 0.065165 0.000000
0.607556 0.065869 0.000000
0.638073 0.066573 0.000000
0.668590 0.067277 0.000000
0.699107 0.067982 0.000000
0.729623 0.068686 0.000000
0.760140 0.069390 0.000000
0.790657 0.070094 0.000000
0.821174 0.070799 0.000000
0.851690 0.071503 0.000000
0.882207 0.072207 0.000000
0.912724 0.072911 0.000000
0.943241 0.073616 0.000000
0.000000 0.081440 0.000000
0.000000 0.082144 0.000000
0.029973 0.082848 0.000000
0.060490 0.083553 0.000000
0.091007 0.084257 0.000000
0.121524 0.084961 0.000000
0.152040 0.085665 0.000000
0.182557 0.086370 0.000000
0.213074 0.087074 0.000000
0.243591 0.087778 0.000000
0.274107 0.088482 0.000000
0.304624 0.089187 0.000000
0.335141 0.089891 0.000000
0.365658 0.090595 0.000000
0.396174 0.091299 0.000000
0.426691 0.092004 0.000000
0.457208 0.092708 0.000000
0.487725 0.093412 0.000000
0.518241 0.094116 0.000000
0.548758 0.094821 0.000000
0.579275 0.095525 0.000000
0.609791 0.096229 0.000000
0.640308 0.096933 0.000000
0.670825 0.097637 0.000000
0.701342 0.098342 0.000000
0.731858 0.099046 0.000000
0.762375 0.099750 0.000000
0.792892 0.100454 0.000000
0.823409 0.101159 0.000000
0.853925 0.101863 0.000000
0.884442 0.102567 0.000000
0.914959 0.103271 0.000000
0.945476 0.103976 0.000000
0.000000 0.111800 0.000000
0.001692 0.112504 0.000000
0.032208 0.113208 0.000000
0.062725 0.113913 0.000000
0.093242 0.114617 0.000000
0.123759 0.115321 0.000000
0.154275 0.116025 0.000000
0.184792 0.116730 0.000000
0.215309 0.117434 0.000000
0.245826 0.118138 0.000000
0.276342 0.118842 0.000000
0.306859 0.119547 0.000000
0.337376 0.120251 0.000000
0.367893 0.120955 0.000000
0.398409 0.121659 0.000000
0.428926 0.122364 0.000000
0.459443 0.123068 0.000000
0.489960 0.123772 0.000000
0.520476 0.124476 0.000000
0.550993 0.125181 0.000000
0.581510 0.125885 0.000000
0.612026 0.126589 0.000000
0.642543 0.127293 0.000000
0.673060 0.127997 0.000000
0.703577 0.128702 0.000000
0.734093 0.129406 0.000000
0.764610 0.130110 0.000000
0.795127 0.130814 0.000000
0.825644 0.131519 0.000000
0.856160 0.132223 0.000000
0.886677 0.132927 0.000000
0.917194 0.133631 0.000000
0.947711 0.134336 0.000000
0.000000 0.142160 0.000000
0.003927 0.142864 0.000000
0.034443 0.143568 0.000000
0.064960 0.144273 0.000000
0.095477 0.144977 0.000000
0.125994 0.145681 0.000000
0.156510 0.146385 0.000000
0.187027 0.147090 0.000000
0.217544 0.147794 0.000000
0.248061 0.148498 0.000000
0.278577 0.149202 0.000000
0.309094 0.149907 0.000000
0.339611 0.150611 0.000000
0.370128 0.151315 0.000000
0.400644 0.152019 0.000000
0.431161 0.152724 0.000000
0.461678 0.153428 0.000000
0.492195 0.154132 0.000000
0.522711 0.154836 0.000000
0.553228 0.155541 0.000000
0.583745 0.156245 0.000000
0.614261 0.156949 0.000000
0.644778 0.157653 0.000000
0.675295 0.158357 0.000000
0.705812 0.159062 0.000000
0.736328 0.159766 0.000000
0.766845 0.160470 0.000000
0.797362 0.161174 0.000000
0.827879 0.161879 0.000000
0.858395 0.162583 0.000000
0.888912 0.163287 0.000000
0.919429 0.163991 0.000000
0.949946 0.164696 0.000000
0.000000 0.172520 0.000000
0.006162 0.173224 0.000000
0.036678 0.173928 0.000000
0.067195 0.174633 0.000000
0.097712 0.175337 0.000000
0.128229 0.176041 0.000000
0.158745 0.176745 0.000000
0.189262 0.177450 0.000000
0.219779 0.178154 0.000000
0.250296 0.178858 0.000000
0.280812 0.179562 0.000000
0.311329 0.180267 0.000000
0.341846 0.180971 0.000000
0.372363 0.181675 0.000000
0.402879 0.182379 0.000000
0.433396 0.183084 0.000000
0.463913 0.183788 0.000000
0.494430 0.184492 0.000000
0.524946 0.185196 0.000000
0.555463 0.185901 0.000000
0.585980 0.186605 0.000000
0.616496 0.187309 0.000000
0.647013 0.188013 0.000000
0.677530 0.188717 0.000000
0.708047 0.189422 0.000000
0.738563 0.190126 0.000000
0.769080 0.190830 0.000000
0.799597 0.191534 0.000000
0.830114 0.192239 0.000000
0.860630 0.192943 0.000000
0.891147 0.193647 0.000000
0.921664 0.194351 0.000000
0.952181 0.195056 0.000000
0.000000 0.202880 0.000000
0.008397 0.203584 0.000000
0.038913 0.204288 0.000000
0.069430 0.204993 0.000000
0.099947 0.205697 0.000000
0.130464 0.206401 0.000000
0.160980 0.207105 0.000000
0.191497 0.207810 0.000000
0.222014 0.208514 0.000000
0.252531 0.209218 0.000000
0.283047 0.209922 0.000000
0.313564 0.210627 0.000000
0.344081 0.211331 0.000000
0.374598 0.212035 0.000000
0.405114 0.212739 0.000000
0.435631 0.213444 0.000000
0.466148 0.214148 0.000000
0.496665 0.214852 0.000000
0.527181 0.215556 0.000000
0.557698 0.216261 0.000000
0.588215 0.216965 0.000000
0.618731 0.217669 0.000000
0.649248 0.218373 0.000000
0.679765 0.219077 0.000000
0.710282 0.219782 0.000000
0.740798 0.220486 0.000000
0.771315 0.221190 0.000000
0.801832 0.221894 0.000000
0.832349 0.222599 0.000000
0.862865 0.223303 0.000000
0.893382 0.224007 0.000000
0.923899 0.224711 0.000000
0.954416 0.225416 0.000416
0.000000 0.233240 0.000000
0.010632 0.233944 0.000000
0.041148 0.234648 0.000000
0.071665 0.235353 0.000000
0.102182 0.236057 0.000000
0.132699 0.236761 0.000000
0.163215 0.237465 0.000000
0.193732 0.238170 0.000000
0.224249 0.238874 0.000000
0.254766 0.239578 0.000000
0.285282 0.240282 0.000000
0.315799 0.240987 0.000000
0.346316 0.241691 0.000000
0.376833 0.242395 0.000000
0.407349 0.243099 0.000000
0.437866 0.243804 0.000000
0.468383 0.244508 0.000000
0.498900 0.245212 0.000000
0.529416 0.245916 0.000000
0.559933 0.246621 0.000000
0.590450 0.247325 0.000000
0.620966 0.248029 0.000000
0.651483 0.248733 0.000000
0.682000 0.249437 0.000000
0.712517 0.250142 0.000000
0.743033 0.250846 0.000000
0.773550 0.251550 0.000000
0.804067 0.252254 0.000000
0.834584 0.252959 0.000000
0.865100 0.253663 0.000538
0.895617 0.254367 0.001242
0.926134 0.255071 0.001946
0.956651 0.255776 0.002651
0.000000 0.263600 0.000000
0.012867 0.264304 0.000000
0.043383 0.265008 0.000000
0.073900 0.265713 0.000000
0.104417 0.266417 0.000000
0.134934 0.267121 0.000000
0.165450 0.267825 0.000000
0.195967 0.268530 0.000000
0.226484 0.269234 0.000000
0.257001 0.269938 0.000000
0.287517 0.270642 0.000000
0.318034 0.271347 0.000000
0.348551 0.272051 0.000000
0.379068 0.272755 0.000000
0.409584 0.273459 0.000000
0.440101 0.274164 0.000000
0.470618 0.274868 0.000000
0.501135 0.275572 0.000000
0.531651 0.276276 0.000000
0.562168 0.276981 0.000000
0.592685 0.277685 0.000000
0.623201 0.278389 0.000000
0.653718 0.279093 0.000000
0.684235 0.279797 0.000000
0.714752 0.280502 0.000000
0.745268 0.281206 0.000000
0.775785 0.281910 0.000660
0.806302 0.282614 0.001364
0.836819 0.283319 0.002069
0.867335 0.284023 0.002773
0.897852 0.284727 0.003477
0.928369 0.285431 0.004181
0.958886 0.286136 0.004886
0.000000 0.293960 0.000000
0.015102 0.294664 0.000000
0.045618 0.295368 0.000000
0.076135 0.296073 0.000000
0.106652 0.296777 0.000000
0.137169 0.297481 0.000000
0.167685 0.298185 0.000000
0.198202 0.298890 0.000000
0.228719 0.299594 0.000000
0.259236 0.300298 0.000000
0.289752 0.301002 0.000000
0.320269 0.301707 0.000000
0.350786 0.302411 0.000000
0.381303 0.303115 0.000000
0.411819 0.303819 0.000000
0.442336 0.304524 0.000000
0.472853 0.305228 0.000000
0.503370 0.305932 0.000000
0.533886 0.306636 0.000000
0.564403 0.307341 0.000000
0.594920 0.308045 0.000000
0.625436 0.308749 0.000000
0.655953 0.309453 0.000078
0.686470 0.310157 0.000782
0.716987 0.310862 0.001487
0.747503 0.311566 0.002191
0.778020 0.312270 0.002895
0.808537 0.312974 0.003599
0.839054 0.313679 0.004304
0.869570 0.314383 0.005008
0.900087 0.315087 0.005712
0.930604 0.315791 0.006416
0.961121 0.316496 0.007121
0.000000 0.324320 0.000000
0.017337 0.325024 0.000000
0.047853 0.325728 0.000000
0.078370 0.326433 0.000000
0.108887 0.327137 0.000000
0.139404 0.327841 0.000000
0.169920 0.328545 0.000000
0.200437 0.329250 0.000000
0.230954 0.329954 0.000000
0.261471 0.330658 0.000000
0.291987 0.331362 0.000000
0.322504 0.332067 0.000000
0.353021 0.332771 0.000000
0.383538 0.333475 0.000000
0.414054 0.334179 0.000000
0.444571 0.334884 0.000000
0.475088 0.335588 0.000000
0.505605 0.336292 0.000000
0.536121 0.336996 0.000000
0.566638 0.337701 0.000201
0.597155 0.338405 0.000905
0.627671 0.339109 0.001609
0.658188 0.339813 0.002313
0.688705 0.340517 0.003017
0.719222 0.341222 0.003722
0.749738 0.341926 0.004426
0.780255 0.342630 0.005130
0.810772 0.343334 0.005834
0.841289 0.344039 0.006539
0.871805 0.344743 0.007243
0.902322 0.345447 0.007947
0.932839 0.346151 0.008651
0.963356 0.346856 0.009356
0.000000 0.354680 0.000000
0.019572 0.355384 0.000000
0.050088 0.356088 0.000000
0.080605 0.356793 0.000000
0.111122 0.357497 0.000000
0.141639 0.358201 0.000000
0.172155 0.358905 0.000000
0.202672 0.359610 0.000000
0.233189 0.360314 0.000000
0.263706 0.361018 0.000000
0.294222 0.361722 0.000000
0.324739 0.362427 0.000000
0.355256 0.363131 0.000000
0.385773 0.363835 0.000000
0.416289 0.364539 0.000000
0.446806 0.365244 0.000000
0.477323 0.365948 0.000323
0.507840 0.366652 0.001027
0.538356 0.367356 0.001731
0.568873 0.368061 0.002436
0.599390 0.368765 0.003140
0.629906 0.369469 0.003844
0.660423 0.370173 0.004548
0.690940 0.370877 0.005252
0.721457 0.371582 0.005957
0.751973 0.372286 0.006661
0.782490 0.372990 0.007365
0.813007 0.373694 0.008069
0.843524 0.374399 0.008774
0.874040 0.375103 0.009478
0.904557 0.375807 0.010182
0.935074 0.376511 0.010886
0.965591 0.377216 0.011591
0.000000 0.385040 0.000000
0.021807 0.385744 0.000000
0.052323 0.386448 0.000000
0.082840 0.387153 0.000000
0.113357 0.387857 0.000000
0.143874 0.388561 0.000000
0.174390 0.389265 0.000000
0.204907 0.389970 0.000000
0.235424 0.390674 0.000000
0.265941 0.391378 0.000000
0.296457 0.392082 0.000000
0.326974 0.392787 0.000000
0.357491 0.393491 0.000000
0.388008 0.394195 0.000445
0.418524 0.394899 0.001149
0.449041 0.395604 0.001854
0.479558 0.396308 0.002558
0.510075 0.397012 0.003262
0.540591 0.397716 0.003966
0.571108 0.398421 0.004671
0.601625 0.399125 0.005375
0.632141 0.399829 0.006079
0.662658 0.400533 0.006783
0.693175 0.401237 0.007487
0.723692 0.401942 0.008192
0.754208 0.402646 0.008896
0.784725 0.403350 0.009600
0.815242 0.404054 0.010304
0.845759 0.404759 0.011009
0.876275 0.405463 0.011713
0.906792 0.406167 0.012417
0.937309 0.406871 0.013121
0.967826 0.407576 0.013826
0.000000 0.415400 0.000000
0.024042 0.416104 0.000000
0.054558 0.416808 0.000000
0.085075 0.417513 0.000000
0.115592 0.418217 0.000000
0.146109 0.418921 0.000000
0.176625 0.419625 0.000000
0.207142 0.420330 0.000000
0.237659 0.421034 0.000000
0.268176 0.421738 0.000000
0.298692 0.422442 0.000567
0.329209 0.423147 0.001272
0.359726 0.423851 0.001976
0.390243 0.424555 0.002680
0.420759 0.425259 0.003384
0.451276 0.425964 0.004089
0.481793 0.426668 0.004793
0.512310 0.427372 0.005497
0.542826 0.428076 0.006201
0.573343 0.428781 0.006906
0.603860 0.429485 0.007610
0.634376 0.430189 0.008314
0.664893 0.430893 0.009018
0.695410 0.431597 0.009722
0.725927 0.432302 0.010427
0.756443 0.433006 0.011131
0.786960 0.433710 0.011835
0.817477 0.434414 0.012539
0.847994 0.435119 0.013244
0.878510 0.435823 0.013948
0.909027 0.436527 0.014652
0.939544 0.437231 0.015356
0.970061 0.437936 0.016061
0.000000 0.445760 0.000000
0.026277 0.446464 0.000000
0.056793 0.447168 0.000000
0.087310 0.447873 0.000000
0.117827 0.448577 0.000000
0.148344 0.449281 0.000000
0.178860 0.449985 0.000000
0.209377 0.450690 0.000690
0.239894 0.451394 0.001394
0.270411 0.452098 0.002098
0.300927 0.452802 0.002802
0.331444 0.453507 0.003507
0.361961 0.454211 0.004211
0.392478 0.454915 0.004915
0.422994 0.455619 0.005619
0.453511 0.456324 0.006324
0.484028 0.457028 0.007028
0.514545 0.457732 0.007732
0.545061 0.458436 0.008436
0.575578 0.459141 0.009141
0.606095 0.459845 0.009845
0.636611 0.460549 0.010549
0.667128 0.461253 0.011253
0.697645 0.461957 0.011957
0.728162 0.462662 0.012662
0.758678 0.463366 0.013366
0.789195 0.464070 0.014070
0.819712 0.464774 0.014774
0.850229 0.465479 0.015479
0.880745 0.466183 0.016183
0.911262 0.466887 0.016887
0.941779 0.467591 0.017591
0.972296 0.468296 0.018296
0.000000 0.476120 0.000000
0.028512 0.476824 0.000000
0.059028 0.477528 0.000000
0.089545 0.478233 0.000108
0.120062 0.478937 0.000812
0.150579 0.479641 0.001516
0.181095 0.480345 0.002220
0.211612 0.481050 0.002925
0.242129 0.481754 0.003629
0.272646 0.482458 0.004333
0.303162 0.483162 0.005037
0.333679 0.483867 0.005742
0.364196 0.484571 0.006446
0.394713 0.485275 0.007150
0.425229 0.485979 0.007854
0.455746 0.486684 0.008559
0.486263 0.487388 0.009263
0.516780 0.488092 0.009967
0.547296 0.488796 0.010671
0.577813 0.489501 0.011376
0.608330 0.490205 0.012080
0.638846 0.490909 0.012784
0.669363 0.491613 0.013488
0.699880 0.492317 0.014192
0.730397 0.493022 0.014897
0.760913 0.493726 0.015601
0.791430 0.494430 0.016305
0.821947 0.495134 0.017009
0.852464 0.495839 0.017714
0.882980 0.496543 0.018418
0.913497 0.497247 0.019122
0.944014 0.497951 0.019826
0.974531 0.498656 0.020531
0.000230 0.506480 0.000230
0.030747 0.507184 0.000934
0.061263 0.507888 0.001638
0.091780 0.508593 0.002343
0.122297 0.509297 0.003047
0.152814 0.510001 0.003751
0.183330 0.510705 0.004455
0.213847 0.511410 0.005160
0.244364 0.512114 0.005864
0.274881 0.512818 0.006568
0.305397 0.513522 0.007272
0.335914 0.514227 0.007977
0.366431 0.514931 0.008681
0.396948 0.515635 0.009385
0.427464 0.516339 0.010089
0.457981 0.517044 0.010794
0.488498 0.517748 0.011498
0.519015 0.518452 0.012202
0.549531 0.519156 0.012906
0.580048 0.519861 0.013611
0.610565 0.520565 0.014315
0.641081 0.521269 0.015019
0.671598 0.521973 0.015723
0.702115 0.522677 0.016427
0.732632 0.523382 0.017132
0.763148 0.524086 0.017836
0.793665 0.524790 0.018540
0.824182 0.525494 0.019244
0.854699 0.526199 0.019949
0.885215 0.526903 0.020653
0.915732 0.527607 0.021357
0.946249 0.528311 0.022061
0.976766 0.529016 0.022766
0.002465 0.536840 0.002465
0.032982 0.537544 0.003169
0.063498 0.538248 0.003873
0.094015 0.538953 0.004578
0.124532 0.539657 0.005282
0.155049 0.540361 0.005986
0.185565 0.541065 0.006690
0.216082 0.541770 0.007395
0.246599 0.542474 0.008099
0.277116 0.543178 0.008803
0.307632 0.543882 0.009507
0.338149 0.544587 0.010212
0.368666 0.545291 0.010916
0.399183 0.545995 0.011620
0.429699 0.546699 0.012324
0.460216 0.547404 0.013029
0.490733 0.548108 0.013733
0.521250 0.548812 0.014437
0.551766 0.549516 0.015141
0.582283 0.550221 0.015846
0.612800 0.550925 0.016550
0.643316 0.551629 0.017254
0.673833 0.552333 0.017958
0.704350 0.553037 0.018662
0.734867 0.553742 0.019367
0.765383 0.554446 0.020071
0.795900 0.555150 0.020775
0.826417 0.555854 0.021479
0.856934 0.556559 0.022184
0.887450 0.557263 0.022888
0.917967 0.557967 0.023592
0.948484 0.558671 0.024296
0.979001 0.559376 0.025001
0.004700 0.567200 0.004700
0.035217 0.567904 0.005404
0.065733 0.568608 0.006108
0.096250 0.569313 0.006813
0.126767 0.570017 0.007517
0.157284 0.570721 0.008221
0.187800 0.571425 0.008925
0.218317 0.572130 0.009630
0.248834 0.572834 0.010334
0.279351 0.573538 0.011038
0.309867 0.574242 0.011742
0.340384 0.574947 0.012447
0.370901 0.575651 0.013151
0.401418 0.576355 0.013855
0.431934 0.577059 0.014559
0.462451 0.577764 0.015264
0.492968 0.578468 0.015968
0.523485 0.579172 0.016672
0.554001 0.579876 0.017376
0.584518 0.580581 0.018081
0.615035 0.581285 0.018785
0.645551 0.581989 0.019489
0.676068 0.582693 0.020193
0.706585 0.583397 0.020897
0.737102 0.584102 0.021602
0.767618 0.584806 0.022306
0.798135 0.585510 0.023010
0.828652 0.586214 0.023714
0.859169 0.586919 0.024419
0.889685 0.587623 0.025123
0.920202 0.588327 0.025827
0.950719 0.589031 0.026531
0.981236 0.589736 0.027236
0.006935 0.597560 0.006935
0.037452 0.598264 0.007639
0.067968 0.598968 0.008343
0.098485 0.599673 0.009048
0.129002 0.600377 0.009752
0.159519 0.601081 0.010456
0.190035 0.601785 0.011160
0.220552 0.602490 0.011865
0.251069 0.603194 0.012569
0.281586 0.603898 0.013273
0.312102 0.604602 0.013977
0.342619 0.605307 0.014682
0.373136 0.606011 0.015386
0.403653 0.606715 0.016090
0.434169 0.607419 0.016794
0.464686 0.608124 0.017499
0.495203 0.608828 0.018203
0.525720 0.609532 0.018907
0.556236 0.610236 0.019611
0.586753 0.610941 0.020316
0.617270 0.611645 0.021020
0.647786 0.612349 0.021724
0.678303 0.613053 0.022428
0.708820 0.613757 0.023132
0.739337 0.614462 0.023837
0.769853 0.615166 0.024541
0.800370 0.615870 0.025245
0.830887 0.616574 0.025949
0.861404 0.617279 0.026654
0.891920 0.617983 0.027358
0.922437 0.618687 0.028062
0.952954 0.619391 0.028766
0.983471 0.620096 0.029471
0.009170 0.627920 0.009170
0.039687 0.628624 0.009874
0.070203 0.629328 0.010578
0.100720 0.630033 0.011283
0.131237 0.630737 0.011987
0.161754 0.631441 0.012691
0.192270 0.632145 0.013395
0.222787 0.632850 0.014100
0.253304 0.633554 0.014804
0.283821 0.634258 0.015508
0.314337 0.634962 0.016212
0.344854 0.635667 0.016917
0.375371 0.636371 0.017621
0.405888 0.637075 0.018325
0.436404 0.637779 0.019029
0.466921 0.638484 0.019734
0.497438 0.639188 0.020438
0.527955 0.639892 0.021142
0.558471 0.640596 0.021846
0.588988 0.641301 0.022551
0.619505 0.642005 0.023255
0.650021 0.642709 0.023959
0.680538 0.643413 0.024663
0.711055 0.644117 0.025367
0.741572 0.644822 0.026072
0.772088 0.645526 0.026776
0.802605 0.646230 0.027480
0.833122 0.646934 0.028184
0.863639 0.647639 0.028889
0.894155 0.648343 0.029593
0.924672 0.649047 0.030297
0.955189 0.649751 0.031001
0.985706 0.650456 0.031706
0.011405 0.658280 0.011405
0.041922 0.658984 0.012109
0.072438 0.659688 0.012813
0.102955 0.660393 0.013518
0.133472 0.661097 0.014222
0.163989 0.661801 0.014926
0.194505 0.662505 0.015630
0.225022 0.663210 0.016335
0.255539 0.663914 0.017039
0.286056 0.664618 0.017743
0.316572 0.665322 0.018447
0.347089 0.666027 0.019152
0.377606 0.666731 0.019856
0.408123 0.667435 0.020560
0.438639 0.668139 0.021264
0.469156 0.668844 0.021969
0.499673 0.669548 0.022673
0.530190 0.670252 0.023377
0.560706 0.670956 0.024081
0.591223 0.671661 0.024786
0.621740 0.672365 0.025490
0.652256 0.673069 0.026194
0.682773 0.673773 0.026898
0.713290 0.674477 0.027602
0.743807 0.675182 0.028307
0.774323 0.675886 0.029011
0.804840 0.676590 0.029715
0.835357 0.677294 0.030419
0.865874 0.677999 0.031124
0.896390 0.678703 0.031828
0.926907 0.679407 0.032532
0.957424 0.680111 0.033236
0.987941 0.680816 0.033941
0.013640 0.688640 0.013640
0.044157 0.689344 0.014344
0.074673 0.690048 0.015048
0.105190 0.690753 0.015753
0.135707 0.691457 0.016457
0.166224 0.692161 0.017161
0.196740 0.692865 0.017865
0.227257 0.693570 0.018570
0.257774 0.694274 0.019274
0.288291 0.694978 0.019978
0.318807 0.695682 0.020682
0.349324 0.696387 0.021387
0.379841 0.697091 0.022091
0.410358 0.697795 0.022795
0.440874 0.698499 0.023499
0.471391 0.699204 0.024204
0.501908 0.699908 0.024908
0.532425 0.700612 0.025612
0.562941 0.701316 0.026316
0.593458 0.702021 0.027021
0.623975 0.702725 0.027725
0.654491 0.703429 0.028429
0.685008 0.704133 0.029133
0.715525 0.704837 0.029837
0.746042 0.705542 0.030542
0.776558 0.706246 0.031246
0.807075 0.706950 0.031950
0.837592 0.707654 0.032654
0.868109 0.708359 0.033359
0.898625 0.709063 0.034063
0.929142 0.709767 0.034767
0.959659 0.710471 0.035471
0.990176 0.711176 0.036176
0.015875 0.719000 0.015875
0.046392 0.719704 0.016579
0.076908 0.720408 0.017283
0.107425 0.721113 0.017988
0.137942 0.721817 0.018692
0.168459 0.722521 0.019396
0.198975 0.723225 0.020100
0.229492 0.723930 0.020805
0.260009 0.724634 0.021509
0.290526 0.725338 0.022213
0.321042 0.726042 0.022917
0.351559 0.726747 0.023622
0.382076 0.727451 0.024326
0.412593 0.728155 0.025030
0.443109 0.728859 0.025734
0.473626 0.729564 0.026439
0.504143 0.730268 0.027143
0.534660 0.730972 0.027847
0.565176 0.731676 0.028551
0.595693 0.732381 0.029256
0.626210 0.733085 0.029960
0.656726 0.733789 0.030664
0.687243 0.734493 0.031368
0.717760 0.735197 0.032072
0.748277 0.735902 0.032777
0.778793 0.736606 0.033481
0.809310 0.737310 0.034185
0.839827 0.738014 0.034889
0.870344 0.738719 0.035594
0.900860 0.739423 0.036298
0.931377 0.740127 0.037002
0.961894 0.740831 0.037706
0.992411 0.741536 0.038411
0.018110 0.749360 0.018110
0.048627 0.750064 0.018814
0.079143 0.750768 0.019518
0.109660 0.751473 0.020223
0.140177 0.752177 0.020927
0.170694 0.752881 0.021631
0.201210 0.753585 0.022335
0.231727 0.754290 0.023040
0.262244 0.754994 0.023744
0.292761 0.755698 0.024448
0.323277 0.756402 0.025152
0.353794 0.757107 0.025857
0.384311 0.757811 0.026561
0.414828 0.758515 0.027265
0.445344 0.759219 0.027969
0.475861 0.759924 0.028674
0.506378 0.760628 0.029378
0.536895 0.761332 0.030082
0.567411 0.762036 0.030786
0.597928 0.762741 0.031491
0.628445 0.763445 0.032195
0.658961 0.764149 0.032899
0.689478 0.764853 0.033603
0.719995 0.765557 0.034307
0.750512 0.766262 0.035012
0.781028 0.766966 0.035716
0.811545 0.767670 0.036420
