luts/warm_tension.cube
TITLE "warm_tension"
LUT_3D_SIZE 9
DOMAIN_MIN 0.0 0.0 0.0
DOMAIN_MAX 1.0 1.0 1.0
0.000000 0.000000 0.000000
0.082067 0.000000 0.000000
0.204134 0.000000 0.000000
0.326201 0.000000 0.000000
0.448268 0.000000 0.000000
0.570335 0.000000 0.000000
0.692402 0.000000 0.000000
0.814469 0.000000 0.000000
0.936536 0.000000 0.000000
0.000000 0.081440 0.000000
0.091007 0.084257 0.000000
0.213074 0.087074 0.000000
0.335141 0.089891 0.000000
0.457208 0.092708 0.000000
0.579275 0.095525 0.000000
0.701342 0.098342 0.000000
0.823409 0.101159 0.000000
0.945476 0.103976 0.000000
0.000000 0.202880 0.000000
0.099947 0.205697 0.000000
0.222014 0.208514 0.000000
0.344081 0.211331 0.000000
0.466148 0.214148 0.000000
0.588215 0.216965 0.000000
0.710282 0.219782 0.000000
0.832349 0.222599 0.000000
0.954416 0.225416 0.000416
0.000000 0.324320 0.000000
0.108887 0.327137 0.000000
0.230954 0.329954 0.000000
0.353021 0.332771 0.000000
0.475088 0.335588 0.000000
0.597155 0.338405 0.000905
0.719222 0.341222 0.003722
0.841289 0.344039 0.006539
0.963356 0.346856 0.009356
0.000000 0.445760 0.000000
0.117827 0.448577 0.000000
0.239894 0.451394 0.001394
0.361961 0.454211 0.004211
0.484028 0.457028 0.007028
0.606095 0.459845 0.009845
0.728162 0.462662 0.012662
0.850229 0.465479 0.015479
0.972296 0.468296 0.018296
0.004700 0.567200 0.004700
0.126767 0.570017 0.007517
0.248834 0.572834 0.010334
0.370901 0.575651 0.013151
0.492968 0.578468 0.015968
0.615035 0.581285 0.018785
0.737102 0.584102 0.021602
0.859169 0.586919 0.024419
0.981236 0.589736 0.027236
0.013640 0.688640 0.013640
0.135707 0.691457 0.016457
0.257774 0.694274 0.019274
0.379841 0.697091 0.022091
0.501908 0.699908 0.024908
0.623975 0.702725 0.027725
0.746042 0.705542 0.030542
0.868109 0.708359 0.033359
0.990176 0.711176 0.036176
0.022580 0.810080 0.022580
0.144647 0.812897 0.025397
0.266714 0.815714 0.028214
0.388781 0.818531 0.031031
0.510848 0.821348 0.033848
0.632915 0.824165 0.036665
0.754982 0.826982 0.039482
0.877049 0.829799 0.042299
0.999116 0.832616 0.045116
0.031520 0.931520 0.031520
0.153587 0.934337 0.034337
0.275654 0.937154 0.037154
0.397721 0.939971 0.039971
0.519788 0.942788 0.042788
0.641855 0.945605 0.045605
0.763922 0.948422 0.048422
0.885989 0.951239 0.051239
1.000000 0.954056 0.054056
0.000000 0.000000 0.066598
0.082915 0.000000 0.069415
0.204982 0.000000 0.072232
0.327049 0.000000 0.075049
0.449116 0.000000 0.077866
0.571183 0.000000 0.080683
0.693250 0.000000 0.083500
0.815317 0.000000 0.086317
0.937384 0.000000 0.089134
0.000000 0.082288 0.075538
0.091855 0.085105 0.078355
0.213922 0.087922 0.081172
0.335989 0.090739 0.083989
0.458056 0.093556 0.086806
0.580123 0.096373 0.089623
0.702190 0.099190 0.092440
0.824257 0.102007 0.095257
0.946324 0.104824 0.098074
0.000000 0.203728 0.084478
0.100795 0.206545 0.087295
0.222862 0.209362 0.090112
0.344929 0.212179 0.092929
0.466996 0.214996 0.095746
0.589063 0.217813 0.098563
0.711130 0.220630 0.101380
0.833197 0.223447 0.104197
0.955264 0.226264 0.107014
0.000000 0.325168 0.093418
0.109735 0.327985 0.096235
0.231802 0.330802 0.099052
0.353869 0.333619 0.101869
0.475936 0.336436 0.104686
0.598003 0.339253 0.107503
0.720070 0.342070 0.110320
0.842137 0.344887 0.113137
0.964204 0.347704 0.115954
0.000000 0.446608 0.102358
0.118675 0.449425 0.105175
0.240742 0.452242 0.107992
0.362809 0.455059 0.110809
0.484876 0.457876 0.113626
0.606943 0.460693 0.116443
0.729010 0.463510 0.119260
0.851077 0.466327 0.122077
0.973144 0.469144 0.124894
0.005548 0.568048 0.111298
0.127615 0.570865 0.114115
0.249682 0.573682 0.116932
0.371749 0.576499 0.119749
0.493816 0.579316 0.122566
0.615883 0.582133 0.125383
0.737950 0.584950 0.128200
0.860017 0.587767 0.131017
0.982084 0.590584 0.133834
0.014488 0.689488 0.120238
0.136555 0.692305 0.123055
0.258622 0.695122 0.125872
0.380689 0.697939 0.128689
0.502756 0.700756 0.131506
0.624823 0.703573 0.134323
0.746890 0.706390 0.137140
0.868957 0.709207 0.139957
0.991024 0.712024 0.142774
0.023428 0.810928 0.129178
0.145495 0.813745 0.131995
0.267562 0.816562 0.134812
0.389629 0.819379 0.137629
0.511696 0.822196 0.140446
0.633763 0.825013 0.143263
0.755830 0.827830 0.146080
0.877897 0.830647 0.148897
0.999964 0.833464 0.151714
0.032368 0.932368 0.138118
0.154435 0.935185 0.140935
0.276502 0.938002 0.143752
0.398569 0.940819 0.146569
0.520636 0.943636 0.149386
0.642703 0.946453 0.152203
0.764770 0.949270 0.155020
0.886837 0.952087 0.157837
1.000000 0.954904 0.160654
0.000000 0.000000 0.173197
0.083764 0.000000 0.176014
0.205831 0.000000 0.178831
0.327898 0.000000 0.181648
0.449965 0.000000 0.184465
0.572031 0.000000 0.187281
0.694098 0.000000 0.190098
0.816165 0.000000 0.192915
0.938232 0.000000 0.195732
0.000000 0.083137 0.182137
0.092704 0.085954 0.184954
0.214771 0.088771 0.187771
0.336838 0.091588 0.190588
0.458904 0.094404 0.193404
0.580971 0.097221 0.196221
0.703038 0.100038 0.199038
0.825105 0.102855 0.201855
0.947172 0.105672 0.204672
0.000000 0.204577 0.191077
0.101644 0.207394 0.193894
0.223711 0.210211 0.196711
0.345778 0.213028 0.199528
0.467845 0.215845 0.202344
0.589911 0.218661 0.205161
0.711978 0.221478 0.207978
0.834045 0.224295 0.210795
0.956112 0.227112 0.213612
0.000000 0.326017 0.200017
0.110584 0.328834 0.202834
0.232651 0.331651 0.205651
0.354718 0.334468 0.208468
0.476784 0.337285 0.211285
0.598851 0.340101 0.214101
0.720918 0.342918 0.216918
0.842985 0.345735 0.219735
0.965052 0.348552 0.222552
0.000000 0.447457 0.208957
0.119524 0.450274 0.211774
0.241591 0.453091 0.214591
0.363658 0.455908 0.217408
0.485725 0.458725 0.220224
0.607791 0.461541 0.223041
0.729858 0.464358 0.225858
0.851925 0.467175 0.228675
0.973992 0.469992 0.231492
0.006397 0.568897 0.217897
0.128464 0.571714 0.220714
0.250531 0.574531 0.223531
0.372598 0.577348 0.226348
0.494665 0.580164 0.229164
0.616731 0.582981 0.231981
0.738798 0.585798 0.234798
0.860865 0.588615 0.237615
0.982932 0.591432 0.240432
0.015337 0.690337 0.226837
0.137404 0.693154 0.229654
0.259471 0.695971 0.232471
0.381538 0.698788 0.235288
0.503605 0.701604 0.238104
0.625671 0.704421 0.240921
0.747738 0.707238 0.243738
0.869805 0.710055 0.246555
0.991872 0.712872 0.249372
0.024277 0.811777 0.235777
0.146344 0.814594 0.238594
0.268411 0.817411 0.241411
0.390478 0.820228 0.244228
0.512544 0.823044 0.247044
0.634611 0.825861 0.249861
0.756678 0.828678 0.252678
0.878745 0.831495 0.255495
1.000000 0.834312 0.258312
0.033217 0.933217 0.244717
0.155284 0.936034 0.247534
0.277351 0.938851 0.250351
0.399418 0.941668 0.253168
0.521484 0.944484 0.255985
0.643551 0.947301 0.258801
0.765618 0.950118 0.261618
0.887685 0.952935 0.264435
1.000000 0.955752 0.267252
0.000000 0.000000 0.279795
0.084612 0.000000 0.282612
0.206679 0.000000 0.285429
0.328746 0.000000 0.288246
0.450813 0.000000 0.291063
0.572880 0.000000 0.293880
0.694947 0.000000 0.296697
0.817014 0.000000 0.299514
0.939081 0.000000 0.302331
0.000000 0.083985 0.288735
0.093552 0.086802 0.291552
0.215619 0.089619 0.294369
0.337686 0.092436 0.297186
0.459753 0.095253 0.300003
0.581820 0.098070 0.302820
0.703887 0.100887 0.305637
0.825954 0.103704 0.308454
0.948021 0.106521 0.311271
0.000000 0.205425 0.297675
0.102492 0.208242 0.300492
0.224559 0.211059 0.303309
0.346626 0.213876 0.306126
0.468693 0.216693 0.308943
0.590760 0.219510 0.311760
0.712827 0.222327 0.314577
0.834894 0.225144 0.317394
0.956961 0.227961 0.320211
0.000000 0.326865 0.306615
0.111432 0.329682 0.309432
0.233499 0.332499 0.312249
0.355566 0.335316 0.315066
0.477633 0.338133 0.317883
0.599700 0.340950 0.320700
0.721767 0.343767 0.323517
0.843834 0.346584 0.326334
0.965901 0.349401 0.329151
0.000000 0.448305 0.315555
0.120372 0.451122 0.318372
0.242439 0.453939 0.321189
0.364506 0.456756 0.324006
0.486573 0.459573 0.326823
0.608640 0.462390 0.329640
0.730707 0.465207 0.332457
0.852774 0.468024 0.335274
0.974841 0.470841 0.338091
0.007245 0.569745 0.324495
0.129312 0.572562 0.327312
0.251379 0.575379 0.330129
0.373446 0.578196 0.332946
0.495513 0.581013 0.335763
0.617580 0.583830 0.338580
0.739647 0.586647 0.341397
0.861714 0.589464 0.344214
0.983781 0.592281 0.347031
0.016185 0.691185 0.333435
0.138252 0.694002 0.336252
0.260319 0.696819 0.339069
0.382386 0.699636 0.341886
0.504453 0.702453 0.344703
0.626520 0.705270 0.347520
0.748587 0.708087 0.350337
0.870654 0.710904 0.353154
0.992721 0.713721 0.355971
0.025125 0.812625 0.342375
0.147192 0.815442 0.345192
0.269259 0.818259 0.348009
0.391326 0.821076 0.350826
0.513393 0.823893 0.353643
0.635460 0.826710 0.356460
0.757527 0.829527 0.359277
0.879594 0.832344 0.362094
1.000000 0.835161 0.364911
0.034065 0.934065 0.351315
0.156132 0.936882 0.354132
0.278199 0.939699 0.356949
0.400266 0.942516 0.359766
0.522333 0.945333 0.362583
0.644400 0.948150 0.365400
0.766467 0.950967 0.368217
0.888534 0.953784 0.371034
1.000000 0.956601 0.373851
0.000000 0.000000 0.386393
0.085460 0.000000 0.389210
0.207527 0.000000 0.392027
0.329594 0.000000 0.394844
0.451661 0.000000 0.397661
0.573728 0.000000 0.400478
0.695795 0.000000 0.403295
0.817862 0.000000 0.406112
0.939929 0.000000 0.408929
0.000000 0.084833 0.395333
0.094400 0.087650 0.398150
0.216467 0.090467 0.400967
0.338534 0.093284 0.403784
0.460601 0.096101 0.406601
0.582668 0.098918 0.409418
0.704735 0.101735 0.412235
0.826802 0.104552 0.415052
0.948869 0.107369 0.417869
0.000000 0.206273 0.404273
0.103340 0.209090 0.407090
0.225407 0.211907 0.409907
0.347474 0.214724 0.412724
0.469541 0.217541 0.415541
0.591608 0.220358 0.418358
0.713675 0.223175 0.421175
0.835742 0.225992 0.423992
0.957809 0.228809 0.426809
0.000000 0.327713 0.413213
0.112280 0.330530 0.416030
0.234347 0.333347 0.418847
0.356414 0.336164 0.421664
0.478481 0.338981 0.424481
0.600548 0.341798 0.427298
0.722615 0.344615 0.430115
0.844682 0.347432 0.432932
0.966749 0.350249 0.435749
0.000000 0.449153 0.422153
0.121220 0.451970 0.424970
0.243287 0.454787 0.427787
0.365354 0.457604 0.430604
0.487421 0.460421 0.433421
0.609488 0.463238 0.436238
0.731555 0.466055 0.439055
0.853622 0.468872 0.441872
0.975689 0.471689 0.444689
0.008093 0.570593 0.431093
0.130160 0.573410 0.433910
0.252227 0.576227 0.436727
0.374294 0.579044 0.439544
0.496361 0.581861 0.442361
0.618428 0.584678 0.445178
0.740495 0.587495 0.447995
0.862562 0.590312 0.450812
0.984629 0.593129 0.453629
0.017033 0.692033 0.440033
0.139100 0.694850 0.442850
0.261167 0.697667 0.445667
0.383234 0.700484 0.448484
0.505301 0.703301 0.451301
0.627368 0.706118 0.454118
0.749435 0.708935 0.456935
0.871502 0.711752 0.459752
0.993569 0.714569 0.462569
0.025973 0.813473 0.448973
0.148040 0.816290 0.451790
0.270107 0.819107 0.454607
0.392174 0.821924 0.457424
0.514241 0.824741 0.460241
0.636308 0.827558 0.463058
0.758375 0.830375 0.465875
0.880442 0.833192 0.468692
1.000000 0.836009 0.471509
0.034913 0.934913 0.457913
0.156980 0.937730 0.460730
0.279047 0.940547 0.463547
0.401114 0.943364 0.466364
0.523181 0.946181 0.469181
0.645248 0.948998 0.471998
0.767315 0.951815 0.474815
0.889382 0.954632 0.477632
1.000000 0.957449 0.480449
0.000000 0.000000 0.492992
0.086309 0.000000 0.495809
0.208376 0.000000 0.498626
0.330443 0.000000 0.501443
0.452510 0.000000 0.504260
0.574577 0.000000 0.507076
0.696643 0.000000 0.509893
0.818710 0.000000 0.512710
0.940777 0.000000 0.515527
0.000000 0.085682 0.501932
0.095249 0.088499 0.504749
0.217316 0.091316 0.507566
0.339383 0.094133 0.510383
0.461450 0.096950 0.513200
0.583516 0.099766 0.516016
0.705583 0.102583 0.518833
0.827650 0.105400 0.521650
0.949717 0.108217 0.524467
0.000000 0.207122 0.510872
0.104189 0.209939 0.513689
0.226256 0.212756 0.516506
0.348323 0.215573 0.519323
0.470390 0.218390 0.522140
0.592457 0.221207 0.524956
0.714523 0.224023 0.527773
0.836590 0.226840 0.530590
0.958657 0.229657 0.533407
0.000000 0.328562 0.519812
0.113129 0.331379 0.522629
0.235196 0.334196 0.525446
0.357263 0.337013 0.528263
0.479330 0.339830 0.531080
0.601397 0.342647 0.533896
0.723463 0.345463 0.536713
0.845530 0.348280 0.539530
0.967597 0.351097 0.542347
0.000002 0.450002 0.528752
0.122069 0.452819 0.531569
0.244136 0.455636 0.534386
0.366203 0.458453 0.537203
0.488270 0.461270 0.540020
0.610337 0.464087 0.542836
0.732403 0.466903 0.545653
0.854470 0.469720 0.548470
0.976537 0.472537 0.551287
0.008942 0.571442 0.537692
0.131009 0.574259 0.540509
0.253076 0.577076 0.543326
0.375143 0.579893 0.546143
0.497210 0.582710 0.548960
0.619277 0.585526 0.551776
0.741343 0.588343 0.554593
0.863410 0.591160 0.557410
0.985477 0.593977 0.560227
0.017882 0.692882 0.546632
0.139949 0.695699 0.549449
0.262016 0.698516 0.552266
0.384083 0.701333 0.555083
0.506150 0.704150 0.557900
0.628217 0.706966 0.560716
0.750283 0.709783 0.563533
0.872350 0.712600 0.566350
0.994417 0.715417 0.569167
0.026822 0.814322 0.555572
0.148889 0.817139 0.558389
0.270956 0.819956 0.561206
0.393023 0.822773 0.564023
0.515090 0.825590 0.566840
0.637157 0.828406 0.569656
0.759223 0.831223 0.572473
0.881290 0.834040 0.575290
1.000000 0.836857 0.578107
0.035762 0.935762 0.564512
0.157829 0.938579 0.567329
0.279896 0.941396 0.570146
0.401963 0.944213 0.572963
0.524030 0.947030 0.575780
0.646097 0.949846 0.578596
0.768163 0.952663 0.581413
0.890230 0.955480 0.584230
1.000000 0.958297 0.587047
0.000000 0.000000 0.599590
0.087157 0.000000 0.602407
0.209224 0.000000 0.605224
0.331291 0.000000 0.608041
0.453358 0.000000 0.610858
0.575425 0.000000 0.613675
0.697492 0.000000 0.616492
0.819559 0.000000 0.619309
0.941626 0.000000 0.622126
0.000000 0.086530 0.608530
0.096097 0.089347 0.611347
0.218164 0.092164 0.614164
0.340231 0.094981 0.616981
0.462298 0.097798 0.619798
0.584365 0.100615 0.622615
0.706432 0.103432 0.625432
0.828499 0.106249 0.628249
0.950566 0.109066 0.631066
0.000000 0.207970 0.617470
0.105037 0.210787 0.620287
0.227104 0.213604 0.623104
0.349171 0.216421 0.625921
0.471238 0.219238 0.628738
0.593305 0.222055 0.631555
0.715372 0.224872 0.634372
0.837439 0.227689 0.637189
0.959506 0.230506 0.640006
0.000000 0.329410 0.626410
0.113977 0.332227 0.629227
0.236044 0.335044 0.632044
0.358111 0.337861 0.634861
0.480178 0.340678 0.637678
0.602245 0.343495 0.640495
0.724312 0.346312 0.643312
0.846379 0.349129 0.646129
0.968446 0.351946 0.648946
0.000850 0.450850 0.635350
0.122917 0.453667 0.638167
0.244984 0.456484 0.640984
0.367051 0.459301 0.643801
0.489118 0.462118 0.646618
0.611185 0.464935 0.649435
0.733252 0.467752 0.652252
0.855319 0.470569 0.655069
0.977386 0.473386 0.657886
0.009790 0.572290 0.644290
0.131857 0.575107 0.647107
0.253924 0.577924 0.649924
0.375991 0.580741 0.652741
0.498058 0.583558 0.655558
0.620125 0.586375 0.658375
0.742192 0.589192 0.661192
0.864259 0.592009 0.664009
0.986326 0.594826 0.666826
0.018730 0.693730 0.653230
0.140797 0.696547 0.656047
0.262864 0.699364 0.658864
0.384931 0.702181 0.661681
0.506998 0.704998 0.664498
0.629065 0.707815 0.667315
0.751132 0.710632 0.670132
0.873199 0.713449 0.672949
0.995266 0.716266 0.675766
0.027670 0.815170 0.662170
0.149737 0.817987 0.664987
0.271804 0.820804 0.667804
0.393871 0.823621 0.670621
0.515938 0.826438 0.673438
0.638005 0.829255 0.676255
0.760072 0.832072 0.679072
0.882139 0.834889 0.681889
1.000000 0.837706 0.684706
0.036610 0.936610 0.671110
0.158677 0.939427 0.673927
0.280744 0.942244 0.676744
0.402811 0.945061 0.679561
0.524878 0.947878 0.682378
0.646945 0.950695 0.685195
0.769012 0.953512 0.688012
0.891079 0.956329 0.690829
1.000000 0.959146 0.693646
0.000000 0.000000 0.706188
0.088005 0.000000 0.709005
0.210072 0.000000 0.711822
0.332139 0.000000 0.714639
0.454206 0.000000 0.717456
0.576273 0.000000 0.720273
0.698340 0.000000 0.723090
0.820407 0.000000 0.725907
0.942474 0.000000 0.728724
0.000000 0.087378 0.715128
0.096945 0.090195 0.717945
0.219012 0.093012 0.720762
0.341079 0.095829 0.723579
0.463146 0.098646 0.726396
0.585213 0.101463 0.729213
0.707280 0.104280 0.732030
0.829347 0.107097 0.734847
0.951414 0.109914 0.737664
0.000000 0.208818 0.724068
0.105885 0.211635 0.726885
0.227952 0.214452 0.729702
0.350019 0.217269 0.732519
0.472086 0.220086 0.735336
0.594153 0.222903 0.738153
0.716220 0.225720 0.740970
0.838287 0.228537 0.743787
0.960354 0.231354 0.746604
0.000000 0.330258 0.733008
0.114825 0.333075 0.735825
0.236892 0.335892 0.738642
0.358959 0.338709 0.741459
0.481026 0.341526 0.744276
0.603093 0.344343 0.747093
0.725160 0.347160 0.749910
0.847227 0.349977 0.752727
0.969294 0.352794 0.755544
0.001698 0.451698 0.741948
0.123765 0.454515 0.744765
0.245832 0.457332 0.747582
0.367899 0.460149 0.750399
0.489966 0.462966 0.753216
0.612033 0.465783 0.756033
0.734100 0.468600 0.758850
0.856167 0.471417 0.761667
0.978234 0.474234 0.764484
0.010638 0.573138 0.750888
0.132705 0.575955 0.753705
0.254772 0.578772 0.756522
0.376839 0.581589 0.759339
0.498906 0.584406 0.762156
0.620973 0.587223 0.764973
0.743040 0.590040 0.767790
0.865107 0.592857 0.770607
0.987174 0.595674 0.773424
0.019578 0.694578 0.759828
0.141645 0.697395 0.762645
0.263712 0.700212 0.765462
0.385779 0.703029 0.768279
0.507846 0.705846 0.771096
0.629913 0.708663 0.773913
0.751980 0.711480 0.776730
0.874047 0.714297 0.779547
0.996114 0.717114 0.782364
0.028518 0.816018 0.768768
0.150585 0.818835 0.771585
0.272652 0.821652 0.774402
0.394719 0.824469 0.777219
0.516786 0.827286 0.780036
0.638853 0.830103 0.782853
0.760920 0.832920 0.785670
0.882987 0.835737 0.788487
1.000000 0.838554 0.791304
0.037458 0.937458 0.777708
0.159525 0.940275 0.780525
0.281592 0.943092 0.783342
0.403659 0.945909 0.786159
0.525726 0.948726 0.788976
0.647793 0.951543 0.791793
0.769860 0.954360 0.794610
0.891927 0.957177 0.797427
1.000000 0.959994 0.800244
0.000000 0.000000 0.812787
0.088854 0.000000 0.815604
0.210921 0.000000 0.818421
0.332988 0.000000 0.821238
0.455055 0.000000 0.824055
0.577122 0.000000 0.826872
0.699188 0.000000 0.829688
0.821255 0.000000 0.832505
0.943322 0.000000 0.835322
0.000000 0.088227 0.821727
0.097794 0.091044 0.824544
0.219861 0.093861 0.827361
0.341928 0.096678 0.830178
0.463995 0.099495 0.832995
0.586062 0.102312 0.835812
0.708128 0.105128 0.838628
0.830195 0.107945 0.841445
0.952262 0.110762 0.844262
0.000000 0.209667 0.830667
0.106734 0.212484 0.833484
0.228801 0.215301 0.836301
0.350868 0.218118 0.839118
0.472935 0.220935 0.841935
0.595002 0.223752 0.844752
0.717068 0.226568 0.847568
0.839135 0.229385 0.850385
0.961202 0.232202 0.853202
0.000000 0.331107 0.839607
0.115674 0.333924 0.842424
0.237741 0.336741 0.845241
0.359808 0.339558 0.848058
0.481875 0.342375 0.850875
0.603942 0.345192 0.853692
0.726009 0.348008 0.856508
0.848075 0.350825 0.859325
0.970142 0.353642 0.862142
0.002547 0.452547 0.848547
0.124614 0.455364 0.851364
0.246681 0.458181 0.854181
0.368748 0.460998 0.856998
0.490815 0.463815 0.859815
0.612882 0.466632 0.862632
0.734949 0.469448 0.865448
0.857015 0.472265 0.868265
0.979082 0.475082 0.871082
0.011487 0.573987 0.857487
0.133554 0.576804 0.860304
0.255621 0.579621 0.863121
0.377688 0.582438 0.865938
0.499755 0.585255 0.868755
0.621822 0.588072 0.871572
0.743888 0.590888 0.874388
0.865955 0.593705 0.877205
0.988022 0.596522 0.880022
0.020427 0.695427 0.866427
0.142494 0.698244 0.869244
0.264561 0.701061 0.872061
0.386628 0.703878 0.874878
0.508695 0.706695 0.877695
0.630762 0.709512 0.880512
0.752829 0.712328 0.883328
0.874895 0.715145 0.886145
0.996962 0.717962 0.888962
0.029367 0.816867 0.875367
0.151434 0.819684 0.878184
0.273501 0.822501 0.881001
0.395568 0.825318 0.883818
0.517635 0.828135 0.886635
0.639702 0.830952 0.889452
0.761768 0.833768 0.892268
0.883835 0.836585 0.895085
1.000000 0.839402 0.897902
0.038307 0.938307 0.884307
0.160374 0.941124 0.887124
0.282441 0.943941 0.889941
0.404508 0.946758 0.892758
0.526575 0.949575 0.895575
0.648642 0.952392 0.898392
0.770709 0.955209 0.901208
0.892775 0.958025 0.904025
1.000000 0.960842 0.906842
